lut-to-lightroom-camera-profile/testdata/TEST-bw.cube
#title:TEST PURE B&W
LUT_3D_SIZE 9
0.00000 0.00000 0.00000
0.03737 0.03737 0.03737
0.07475 0.07475 0.07475
0.11213 0.11213 0.11213
0.14950 0.14950 0.14950
0.18687 0.18687 0.18687
0.22425 0.22425 0.22425
0.26162 0.26162 0.26162
0.29900 0.29900 0.29900
0.07337 0.07337 0.07337
0.11075 0.11075 0.11075
0.14813 0.14813 0.14813
0.18550 0.18550 0.18550
0.22287 0.22287 0.22287
0.26025 0.26025 0.26025
0.29763 0.29763 0.29763
0.33500 0.33500 0.33500
0.37238 0.37238 0.37238
0.14675 0.14675 0.14675
0.18412 0.18412 0.18412
0.22150 0.22150 0.22150
0.25887 0.25887 0.25887
0.29625 0.29625 0.29625
0.33362 0.33362 0.33362
0.37100 0.37100 0.37100
0.40837 0.40837 0.40837
0.44575 0.44575 0.44575
0.22012 0.22012 0.22012
0.25750 0.25750 0.25750
0.29487 0.29487 0.29487
0.33225 0.33225 0.33225
0.36962 0.36962 0.36962
0.40700 0.40700 0.40700
0.44437 0.44437 0.44437
0.48175 0.48175 0.48175
0.51912 0.51912 0.51912
0.29350 0.29350 0.29350
0.33087 0.33087 0.33087
0.36825 0.36825 0.36825
0.40563 0.40563 0.40563
0.44300 0.44300 0.44300
0.48037 0.48037 0.48037
0.51775 0.51775 0.51775
0.55512 0.55512 0.55512
0.59250 0.59250 0.59250
0.36687 0.36687 0.36687
0.40425 0.40425 0.40425
0.44162 0.44162 0.44162
0.47900 0.47900 0.47900
0.51637 0.51637 0.51637
0.55375 0.55375 0.55375
0.59112 0.59112 0.59112
0.62850 0.62850 0.62850
0.66587 0.66587 0.66587
0.44025 0.44025 0.44025
0.47762 0.47762 0.47762
0.51500 0.51500 0.51500
0.55237 0.55237 0.55237
0.58975 0.58975 0.58975
0.62712 0.62712 0.62712
0.66450 0.66450 0.66450
0.70188 0.70188 0.70188
0.73925 0.73925 0.73925
0.51362 0.51362 0.51362
0.55100 0.55100 0.55100
0.58837 0.58837 0.58837
0.62575 0.62575 0.62575
0.66312 0.66312 0.66312
0.70050 0.70050 0.70050
0.73788 0.73788 0.73788
0.77525 0.77525 0.77525
0.81262 0.81262 0.81262
0.58700 0.58700 0.58700
0.62438 0.62438 0.62438
0.66175 0.66175 0.66175
0.69912 0.69912 0.69912
0.73650 0.73650 0.73650
0.77387 0.77387 0.77387
0.81125 0.81125 0.81125
0.84862 0.84862 0.84862
0.88600 0.88600 0.88600
0.01425 0.01425 0.01425
0.05162 0.05162 0.05162
0.08900 0.08900 0.08900
0.12638 0.12638 0.12638
0.16375 0.16375 0.16375
0.20112 0.20112 0.20112
0.23850 0.23850 0.23850
0.27587 0.27587 0.27587
0.31325 0.31325 0.31325
0.08762 0.08762 0.08762
0.12500 0.12500 0.12500
0.16238 0.16238 0.16238
0.19975 0.19975 0.19975
0.23713 0.23713 0.23713
0.27450 0.27450 0.27450
0.31188 0.31188 0.31188
0.34925 0.34925 0.34925
0.38662 0.38662 0.38662
0.16100 0.16100 0.16100
0.19837 0.19837 0.19837
0.23575 0.23575 0.23575
0.27312 0.27312 0.27312
0.31050 0.31050 0.31050
0.34787 0.34787 0.34787
0.38525 0.38525 0.38525
0.42262 0.42262 0.42262
0.46000 0.46000 0.46000
0.23438 0.23438 0.23438
0.27175 0.27175 0.27175
0.30912 0.30912 0.30912
0.34650 0.34650 0.34650
0.38387 0.38387 0.38387
0.42125 0.42125 0.42125
0.45862 0.45862 0.45862
0.49600 0.49600 0.49600
0.53337 0.53337 0.53337
0.30775 0.30775 0.30775
0.34512 0.34512 0.34512
0.38250 0.38250 0.38250
0.41987 0.41987 0.41987
0.45725 0.45725 0.45725
0.49462 0.49462 0.49462
0.53200 0.53200 0.53200
0.56937 0.56937 0.56937
0.60675 0.60675 0.60675
0.38112 0.38112 0.38112
0.41850 0.41850 0.41850
0.45587 0.45587 0.45587
0.49325 0.49325 0.49325
0.53062 0.53062 0.53062
0.56800 0.56800 0.56800
0.60537 0.60537 0.60537
0.64275 0.64275 0.64275
0.68012 0.68012 0.68012
0.45450 0.45450 0.45450
0.49187 0.49187 0.49187
0.52925 0.52925 0.52925
0.56662 0.56662 0.56662
0.60400 0.60400 0.60400
0.64137 0.64137 0.64137
0.67875 0.67875 0.67875
0.71613 0.71613 0.71613
0.75350 0.75350 0.75350
0.52787 0.52787 0.52787
0.56525 0.56525 0.56525
0.60262 0.60262 0.60262
0.64000 0.64000 0.64000
0.67737 0.67737 0.67737
0.71475 0.71475 0.71475
0.75213 0.75213 0.75213
0.78950 0.78950 0.78950
0.82687 0.82687 0.82687
0.60125 0.60125 0.60125
0.63862 0.63862 0.63862
0.67600 0.67600 0.67600
0.71337 0.71337 0.71337
0.75075 0.75075 0.75075
0.78812 0.78812 0.78812
0.82550 0.82550 0.82550
0.86287 0.86287 0.86287
0.90025 0.90025 0.90025
0.02850 0.02850 0.02850
0.06588 0.06588 0.06588
0.10325 0.10325 0.10325
0.14062 0.14062 0.14062
0.17800 0.17800 0.17800
0.21537 0.21537 0.21537
0.25275 0.25275 0.25275
0.29013 0.29013 0.29013
0.32750 0.32750 0.32750
0.10187 0.10187 0.10187
0.13925 0.13925 0.13925
0.17663 0.17663 0.17663
0.21400 0.21400 0.21400
0.25138 0.25138 0.25138
0.28875 0.28875 0.28875
0.32613 0.32613 0.32613
0.36350 0.36350 0.36350
0.40088 0.40088 0.40088
0.17525 0.17525 0.17525
0.21262 0.21262 0.21262
0.25000 0.25000 0.25000
0.28737 0.28737 0.28737
0.32475 0.32475 0.32475
0.36212 0.36212 0.36212
0.39950 0.39950 0.39950
0.43688 0.43688 0.43688
0.47425 0.47425 0.47425
0.24862 0.24862 0.24862
0.28600 0.28600 0.28600
0.32338 0.32338 0.32338
0.36075 0.36075 0.36075
0.39813 0.39813 0.39813
0.43550 0.43550 0.43550
0.47287 0.47287 0.47287
0.51025 0.51025 0.51025
0.54762 0.54762 0.54762
0.32200 0.32200 0.32200
0.35938 0.35938 0.35938
0.39675 0.39675 0.39675
0.43413 0.43413 0.43413
0.47150 0.47150 0.47150
0.50887 0.50887 0.50887
0.54625 0.54625 0.54625
0.58362 0.58362 0.58362
0.62100 0.62100 0.62100
0.39537 0.39537 0.39537
0.43275 0.43275 0.43275
0.47012 0.47012 0.47012
0.50750 0.50750 0.50750
0.54487 0.54487 0.54487
0.58225 0.58225 0.58225
0.61962 0.61962 0.61962
0.65700 0.65700 0.65700
0.69437 0.69437 0.69437
0.46875 0.46875 0.46875
0.50612 0.50612 0.50612
0.54350 0.54350 0.54350
0.58087 0.58087 0.58087
0.61825 0.61825 0.61825
0.65562 0.65562 0.65562
0.69300 0.69300 0.69300
0.73037 0.73037 0.73037
0.76775 0.76775 0.76775
0.54212 0.54212 0.54212
0.57950 0.57950 0.57950
0.61687 0.61687 0.61687
0.65425 0.65425 0.65425
0.69162 0.69162 0.69162
0.72900 0.72900 0.72900
0.76638 0.76638 0.76638
0.80375 0.80375 0.80375
0.84112 0.84112 0.84112
0.61550 0.61550 0.61550
0.65287 0.65287 0.65287
0.69025 0.69025 0.69025
0.72762 0.72762 0.72762
0.76500 0.76500 0.76500
0.80237 0.80237 0.80237
0.83975 0.83975 0.83975
0.87712 0.87712 0.87712
0.91450 0.91450 0.91450
0.04275 0.04275 0.04275
0.08013 0.08013 0.08013
0.11750 0.11750 0.11750
0.15488 0.15488 0.15488
0.19225 0.19225 0.19225
0.22962 0.22962 0.22962
0.26700 0.26700 0.26700
0.30438 0.30438 0.30438
0.34175 0.34175 0.34175
0.11613 0.11613 0.11613
0.15350 0.15350 0.15350
0.19088 0.19088 0.19088
0.22825 0.22825 0.22825
0.26562 0.26562 0.26562
0.30300 0.30300 0.30300
0.34038 0.34038 0.34038
0.37775 0.37775 0.37775
0.41513 0.41513 0.41513
0.18950 0.18950 0.18950
0.22687 0.22687 0.22687
0.26425 0.26425 0.26425
0.30162 0.30162 0.30162
0.33900 0.33900 0.33900
0.37637 0.37637 0.37637
0.41375 0.41375 0.41375
0.45112 0.45112 0.45112
0.48850 0.48850 0.48850
0.26287 0.26287 0.26287
0.30025 0.30025 0.30025
0.33763 0.33763 0.33763
0.37500 0.37500 0.37500
0.41237 0.41237 0.41237
0.44975 0.44975 0.44975
0.48712 0.48712 0.48712
0.52450 0.52450 0.52450
0.56187 0.56187 0.56187
0.33625 0.33625 0.33625
0.37362 0.37362 0.37362
0.41100 0.41100 0.41100
0.44838 0.44838 0.44838
0.48575 0.48575 0.48575
0.52312 0.52312 0.52312
0.56050 0.56050 0.56050
0.59787 0.59787 0.59787
0.63525 0.63525 0.63525
0.40962 0.40962 0.40962
0.44700 0.44700 0.44700
0.48437 0.48437 0.48437
0.52175 0.52175 0.52175
0.55912 0.55912 0.55912
0.59650 0.59650 0.59650
0.63387 0.63387 0.63387
0.67125 0.67125 0.67125
0.70862 0.70862 0.70862
0.48300 0.48300 0.48300
0.52037 0.52037 0.52037
0.55775 0.55775 0.55775
0.59512 0.59512 0.59512
0.63250 0.63250 0.63250
0.66987 0.66987 0.66987
0.70725 0.70725 0.70725
0.74462 0.74462 0.74462
0.78200 0.78200 0.78200
0.55637 0.55637 0.55637
0.59375 0.59375 0.59375
0.63112 0.63112 0.63112
0.66850 0.66850 0.66850
0.70587 0.70587 0.70587
0.74325 0.74325 0.74325
0.78063 0.78063 0.78063
0.81800 0.81800 0.81800
0.85537 0.85537 0.85537
0.62975 0.62975 0.62975
0.66712 0.66712 0.66712
0.70450 0.70450 0.70450
0.74187 0.74187 0.74187
0.77925 0.77925 0.77925
0.81662 0.81662 0.81662
0.85400 0.85400 0.85400
0.89137 0.89137 0.89137
0.92875 0.92875 0.92875
0.05700 0.05700 0.05700
0.09438 0.09438 0.09438
0.13175 0.13175 0.13175
0.16912 0.16912 0.16912
0.20650 0.20650 0.20650
0.24387 0.24387 0.24387
0.28125 0.28125 0.28125
0.31862 0.31862 0.31862
0.35600 0.35600 0.35600
0.13037 0.13037 0.13037
0.16775 0.16775 0.16775
0.20513 0.20513 0.20513
0.24250 0.24250 0.24250
0.27987 0.27987 0.27987
0.31725 0.31725 0.31725
0.35463 0.35463 0.35463
0.39200 0.39200 0.39200
0.42938 0.42938 0.42938
0.20375 0.20375 0.20375
0.24112 0.24112 0.24112
0.27850 0.27850 0.27850
0.31587 0.31587 0.31587
0.35325 0.35325 0.35325
0.39062 0.39062 0.39062
0.42800 0.42800 0.42800
0.46537 0.46537 0.46537
0.50275 0.50275 0.50275
0.27713 0.27713 0.27713
0.31450 0.31450 0.31450
0.35187 0.35187 0.35187
0.38925 0.38925 0.38925
0.42662 0.42662 0.42662
0.46400 0.46400 0.46400
0.50138 0.50138 0.50138
0.53875 0.53875 0.53875
0.57612 0.57612 0.57612
0.35050 0.35050 0.35050
0.38787 0.38787 0.38787
0.42525 0.42525 0.42525
0.46263 0.46263 0.46263
0.50000 0.50000 0.50000
0.53738 0.53738 0.53738
0.57475 0.57475 0.57475
0.61213 0.61213 0.61213
0.64950 0.64950 0.64950
0.42387 0.42387 0.42387
0.46125 0.46125 0.46125
0.49862 0.49862 0.49862
0.53600 0.53600 0.53600
0.57337 0.57337 0.57337
0.61075 0.61075 0.61075
0.64812 0.64812 0.64812
0.68550 0.68550 0.68550
0.72288 0.72288 0.72288
0.49725 0.49725 0.49725
0.53463 0.53463 0.53463
0.57200 0.57200 0.57200
0.60938 0.60938 0.60938
0.64675 0.64675 0.64675
0.68412 0.68412 0.68412
0.72150 0.72150 0.72150
0.75888 0.75888 0.75888
0.79625 0.79625 0.79625
0.57063 0.57063 0.57063
0.60800 0.60800 0.60800
0.64538 0.64538 0.64538
0.68275 0.68275 0.68275
0.72013 0.72013 0.72013
0.75750 0.75750 0.75750
0.79488 0.79488 0.79488
0.83225 0.83225 0.83225
0.86962 0.86962 0.86962
0.64400 0.64400 0.64400
0.68138 0.68138 0.68138
0.71875 0.71875 0.71875
0.75613 0.75613 0.75613
0.79350 0.79350 0.79350
0.83088 0.83088 0.83088
0.86825 0.86825 0.86825
0.90563 0.90563 0.90563
0.94300 0.94300 0.94300
0.07125 0.07125 0.07125
0.10862 0.10862 0.10862
0.14600 0.14600 0.14600
0.18338 0.18338 0.18338
0.22075 0.22075 0.22075
0.25812 0.25812 0.25812
0.29550 0.29550 0.29550
0.33288 0.33288 0.33288
0.37025 0.37025 0.37025
0.14463 0.14463 0.14463
0.18200 0.18200 0.18200
0.21938 0.21938 0.21938
0.25675 0.25675 0.25675
0.29412 0.29412 0.29412
0.33150 0.33150 0.33150
0.36888 0.36888 0.36888
0.40625 0.40625 0.40625
0.44363 0.44363 0.44363
0.21800 0.21800 0.21800
0.25538 0.25538 0.25538
0.29275 0.29275 0.29275
0.33013 0.33013 0.33013
0.36750 0.36750 0.36750
0.40487 0.40487 0.40487
0.44225 0.44225 0.44225
0.47962 0.47962 0.47962
0.51700 0.51700 0.51700
0.29137 0.29137 0.29137
0.32875 0.32875 0.32875
0.36613 0.36613 0.36613
0.40350 0.40350 0.40350
0.44088 0.44088 0.44088
0.47825 0.47825 0.47825
0.51562 0.51562 0.51562
0.55300 0.55300 0.55300
0.59037 0.59037 0.59037
0.36475 0.36475 0.36475
0.40212 0.40212 0.40212
0.43950 0.43950 0.43950
0.47688 0.47688 0.47688
0.51425 0.51425 0.51425
0.55163 0.55163 0.55163
0.58900 0.58900 0.58900
0.62638 0.62638 0.62638
0.66375 0.66375 0.66375
0.43812 0.43812 0.43812
0.47550 0.47550 0.47550
0.51287 0.51287 0.51287
0.55025 0.55025 0.55025
0.58762 0.58762 0.58762
0.62500 0.62500 0.62500
0.66237 0.66237 0.66237
0.69975 0.69975 0.69975
0.73713 0.73713 0.73713
0.51150 0.51150 0.51150
0.54888 0.54888 0.54888
0.58625 0.58625 0.58625
0.62362 0.62362 0.62362
0.66100 0.66100 0.66100
0.69837 0.69837 0.69837
0.73575 0.73575 0.73575
0.77313 0.77313 0.77313
0.81050 0.81050 0.81050
0.58488 0.58488 0.58488
0.62225 0.62225 0.62225
0.65963 0.65963 0.65963
0.69700 0.69700 0.69700
0.73438 0.73438 0.73438
0.77175 0.77175 0.77175
0.80913 0.80913 0.80913
0.84650 0.84650 0.84650
0.88387 0.88387 0.88387
0.65825 0.65825 0.65825
0.69563 0.69563 0.69563
0.73300 0.73300 0.73300
0.77038 0.77038 0.77038
0.80775 0.80775 0.80775
0.84513 0.84513 0.84513
0.88250 0.88250 0.88250
0.91987 0.91987 0.91987
0.95725 0.95725 0.95725
0.08550 0.08550 0.08550
0.12288 0.12288 0.12288
0.16025 0.16025 0.16025
0.19762 0.19762 0.19762
0.23500 0.23500 0.23500
0.27237 0.27237 0.27237
0.30975 0.30975 0.30975
0.34713 0.34713 0.34713
0.38450 0.38450 0.38450
0.15887 0.15887 0.15887
0.19625 0.19625 0.19625
0.23363 0.23363 0.23363
0.27100 0.27100 0.27100
0.30838 0.30838 0.30838
0.34575 0.34575 0.34575
0.38313 0.38313 0.38313
0.42050 0.42050 0.42050
0.45788 0.45788 0.45788
0.23225 0.23225 0.23225
0.26963 0.26963 0.26963
0.30700 0.30700 0.30700
0.34437 0.34437 0.34437
0.38175 0.38175 0.38175
0.41912 0.41912 0.41912
0.45650 0.45650 0.45650
0.49388 0.49388 0.49388
0.53125 0.53125 0.53125
0.30562 0.30562 0.30562
0.34300 0.34300 0.34300
0.38038 0.38038 0.38038
0.41775 0.41775 0.41775
0.45513 0.45513 0.45513
0.49250 0.49250 0.49250
0.52987 0.52987 0.52987
0.56725 0.56725 0.56725
0.60462 0.60462 0.60462
0.37900 0.37900 0.37900
0.41637 0.41637 0.41637
0.45375 0.45375 0.45375
0.49113 0.49113 0.49113
0.52850 0.52850 0.52850
0.56588 0.56588 0.56588
0.60325 0.60325 0.60325
0.64062 0.64062 0.64062
0.67800 0.67800 0.67800
0.45237 0.45237 0.45237
0.48975 0.48975 0.48975
0.52712 0.52712 0.52712
0.56450 0.56450 0.56450
0.60187 0.60187 0.60187
0.63925 0.63925 0.63925
0.67662 0.67662 0.67662
0.71400 0.71400 0.71400
0.75138 0.75138 0.75138
0.52575 0.52575 0.52575
0.56312 0.56312 0.56312
0.60050 0.60050 0.60050
0.63787 0.63787 0.63787
0.67525 0.67525 0.67525
0.71262 0.71262 0.71262
0.75000 0.75000 0.75000
0.78738 0.78738 0.78738
0.82475 0.82475 0.82475
0.59913 0.59913 0.59913
0.63650 0.63650 0.63650
0.67388 0.67388 0.67388
0.71125 0.71125 0.71125
0.74862 0.74862 0.74862
0.78600 0.78600 0.78600
0.82338 0.82338 0.82338
0.86075 0.86075 0.86075
0.89812 0.89812 0.89812
0.67250 0.67250 0.67250
0.70988 0.70988 0.70988
0.74725 0.74725 0.74725
0.78463 0.78463 0.78463
0.82200 0.82200 0.82200
0.85938 0.85938 0.85938
0.89675 0.89675 0.89675
0.93412 0.93412 0.93412
0.97150 0.97150 0.97150
0.09975 0.09975 0.09975
0.13712 0.13712 0.13712
0.17450 0.17450 0.17450
0.21188 0.21188 0.21188
0.24925 0.24925 0.24925
0.28663 0.28663 0.28663
0.32400 0.32400 0.32400
0.36138 0.36138 0.36138
0.39875 0.39875 0.39875
0.17313 0.17313 0.17313
0.21050 0.21050 0.21050
0.24788 0.24788 0.24788
0.28525 0.28525 0.28525
0.32262 0.32262 0.32262
0.36000 0.36000 0.36000
0.39738 0.39738 0.39738
0.43475 0.43475 0.43475
0.47213 0.47213 0.47213
0.24650 0.24650 0.24650
0.28387 0.28387 0.28387
0.32125 0.32125 0.32125
0.35862 0.35862 0.35862
0.39600 0.39600 0.39600
0.43337 0.43337 0.43337
0.47075 0.47075 0.47075
0.50812 0.50812 0.50812
0.54550 0.54550 0.54550
0.31988 0.31988 0.31988
0.35725 0.35725 0.35725
0.39463 0.39463 0.39463
0.43200 0.43200 0.43200
0.46937 0.46937 0.46937
0.50675 0.50675 0.50675
0.54412 0.54412 0.54412
0.58150 0.58150 0.58150
0.61887 0.61887 0.61887
0.39325 0.39325 0.39325
0.43062 0.43062 0.43062
0.46800 0.46800 0.46800
0.50538 0.50538 0.50538
0.54275 0.54275 0.54275
0.58013 0.58013 0.58013
0.61750 0.61750 0.61750
0.65487 0.65487 0.65487
0.69225 0.69225 0.69225
0.46662 0.46662 0.46662
0.50400 0.50400 0.50400
0.54137 0.54137 0.54137
0.57875 0.57875 0.57875
0.61612 0.61612 0.61612
0.65350 0.65350 0.65350
0.69087 0.69087 0.69087
0.72825 0.72825 0.72825
0.76562 0.76562 0.76562
0.54000 0.54000 0.54000
0.57737 0.57737 0.57737
0.61475 0.61475 0.61475
0.65212 0.65212 0.65212
0.68950 0.68950 0.68950
0.72687 0.72687 0.72687
0.76425 0.76425 0.76425
0.80163 0.80163 0.80163
0.83900 0.83900 0.83900
0.61338 0.61338 0.61338
0.65075 0.65075 0.65075
0.68812 0.68812 0.68812
0.72550 0.72550 0.72550
0.76287 0.76287 0.76287
0.80025 0.80025 0.80025
0.83763 0.83763 0.83763
0.87500 0.87500 0.87500
0.91237 0.91237 0.91237
0.68675 0.68675 0.68675
0.72413 0.72413 0.72413
0.76150 0.76150 0.76150
0.79888 0.79888 0.79888
0.83625 0.83625 0.83625
0.87362 0.87362 0.87362
0.91100 0.91100 0.91100
0.94837 0.94837 0.94837
0.98575 0.98575 0.98575
0.11400 0.11400 0.11400
0.15138 0.15138 0.15138
0.18875 0.18875 0.18875
0.22613 0.22613 0.22613
0.26350 0.26350 0.26350
0.30088 0.30088 0.30088
0.33825 0.33825 0.33825
0.37562 0.37562 0.37562
0.41300 0.41300 0.41300
0.18738 0.18738 0.18738
0.22475 0.22475 0.22475
0.26212 0.26212 0.26212
0.29950 0.29950 0.29950
0.33687 0.33687 0.33687
0.37425 0.37425 0.37425
0.41163 0.41163 0.41163
0.44900 0.44900 0.44900
0.48638 0.48638 0.48638
0.26075 0.26075 0.26075
0.29812 0.29812 0.29812
0.33550 0.33550 0.33550
0.37287 0.37287 0.37287
0.41025 0.41025 0.41025
0.44762 0.44762 0.44762
0.48500 0.48500 0.48500
0.52238 0.52238 0.52238
0.55975 0.55975 0.55975
0.33413 0.33413 0.33413
0.37150 0.37150 0.37150
0.40887 0.40887 0.40887
0.44625 0.44625 0.44625
0.48362 0.48362 0.48362
0.52100 0.52100 0.52100
0.55837 0.55837 0.55837
0.59575 0.59575 0.59575
0.63312 0.63312 0.63312
0.40750 0.40750 0.40750
0.44487 0.44487 0.44487
0.48225 0.48225 0.48225
0.51963 0.51963 0.51963
0.55700 0.55700 0.55700
0.59437 0.59437 0.59437
0.63175 0.63175 0.63175
0.66912 0.66912 0.66912
0.70650 0.70650 0.70650
0.48087 0.48087 0.48087
0.51825 0.51825 0.51825
0.55562 0.55562 0.55562
0.59300 0.59300 0.59300
0.63037 0.63037 0.63037
0.66775 0.66775 0.66775
0.70512 0.70512 0.70512
0.74250 0.74250 0.74250
0.77987 0.77987 0.77987
0.55425 0.55425 0.55425
0.59162 0.59162 0.59162
0.62900 0.62900 0.62900
0.66637 0.66637 0.66637
0.70375 0.70375 0.70375
0.74112 0.74112 0.74112
0.77850 0.77850 0.77850
0.81588 0.81588 0.81588
0.85325 0.85325 0.85325
0.62762 0.62762 0.62762
0.66500 0.66500 0.66500
0.70237 0.70237 0.70237
0.73975 0.73975 0.73975
0.77712 0.77712 0.77712
0.81450 0.81450 0.81450
0.85188 0.85188 0.85188
0.88925 0.88925 0.88925
0.92662 0.92662 0.92662
0.70100 0.70100 0.70100
0.73838 0.73838 0.73838
0.77575 0.77575 0.77575
0.81312 0.81312 0.81312
0.85050 0.85050 0.85050
0.88787 0.88787 0.88787
0.92525 0.92525 0.92525
0.96262 0.96262 0.96262
1.00000 1.00000 1.00000
