lut-to-lightroom-camera-profile/testdata/TEST-bw.cube
#title:TEST PURE B&W
LUT_3D_SIZE 5
0.00000 0.00000 0.00000
0.07475 0.07475 0.07475
0.14950 0.14950 0.14950
0.22425 0.22425 0.22425
0.29900 0.29900 0.29900
0.14675 0.14675 0.14675
0.22150 0.22150 0.22150
0.29625 0.29625 0.29625
0.37100 0.37100 0.37100
0.44575 0.44575 0.44575
0.29350 0.29350 0.29350
0.36825 0.36825 0.36825
0.44300 0.44300 0.44300
0.51775 0.51775 0.51775
0.59250 0.59250 0.59250
0.44025 0.44025 0.44025
0.51500 0.51500 0.51500
0.58975 0.58975 0.58975
0.66450 0.66450 0.66450
0.73925 0.73925 0.73925
0.58700 0.58700 0.58700
0.66175 0.66175 0.66175
0.73650 0.73650 0.73650
0.81125 0.81125 0.81125
0.88600 0.88600 0.88600
0.02850 0.02850 0.02850
0.10325 0.10325 0.10325
0.17800 0.17800 0.17800
0.25275 0.25275 0.25275
0.32750 0.32750 0.32750
0.17525 0.17525 0.17525
0.25000 0.25000 0.25000
0.32475 0.32475 0.32475
0.39950 0.39950 0.39950
0.47425 0.47425 0.47425
0.32200 0.32200 0.32200
0.39675 0.39675 0.39675
0.47150 0.47150 0.47150
0.54625 0.54625 0.54625
0.62100 0.62100 0.62100
0.46875 0.46875 0.46875
0.54350 0.54350 0.54350
0.61825 0.61825 0.61825
0.69300 0.69300 0.69300
0.76775 0.76775 0.76775
0.61550 0.61550 0.61550
0.69025 0.69025 0.69025
0.76500 0.76500 0.76500
0.83975 0.83975 0.83975
0.91450 0.91450 0.91450
0.05700 0.05700 0.05700
0.13175 0.13175 0.13175
0.20650 0.20650 0.20650
0.28125 0.28125 0.28125
0.35600 0.35600 0.35600
0.20375 0.20375 0.20375
0.27850 0.27850 0.27850
0.35325 0.35325 0.35325
0.42800 0.42800 0.42800
0.50275 0.50275 0.50275
0.35050 0.35050 0.35050
0.42525 0.42525 0.42525
0.50000 0.50000 0.50000
0.57475 0.57475 0.57475
0.64950 0.64950 0.64950
0.49725 0.49725 0.49725
0.57200 0.57200 0.57200
0.64675 0.64675 0.64675
0.72150 0.72150 0.72150
0.79625 0.79625 0.79625
0.64400 0.64400 0.64400
0.71875 0.71875 0.71875
0.79350 0.79350 0.79350
0.86825 0.86825 0.86825
0.94300 0.94300 0.94300
0.08550 0.08550 0.08550
0.16025 0.16025 0.16025
0.23500 0.23500 0.23500
0.30975 0.30975 0.30975
0.38450 0.38450 0.38450
0.23225 0.23225 0.23225
0.30700 0.30700 0.30700
0.38175 0.38175 0.38175
0.45650 0.45650 0.45650
0.53125 0.53125 0.53125
0.37900 0.37900 0.37900
0.45375 0.45375 0.45375
0.52850 0.52850 0.52850
0.60325 0.60325 0.60325
0.67800 0.67800 0.67800
0.52575 0.52575 0.52575
0.60050 0.60050 0.60050
0.67525 0.67525 0.67525
0.75000 0.75000 0.75000
0.82475 0.82475 0.82475
0.67250 0.67250 0.67250
0.74725 0.74725 0.74725
0.82200 0.82200 0.82200
0.89675 0.89675 0.89675
0.97150 0.97150 0.97150
0.11400 0.11400 0.11400
0.18875 0.18875 0.18875
0.26350 0.26350 0.26350
0.33825 0.33825 0.33825
0.41300 0.41300 0.41300
0.26075 0.26075 0.26075
0.33550 0.33550 0.33550
0.41025 0.41025 0.41025
0.48500 0.48500 0.48500
0.55975 0.55975 0.55975
0.40750 0.40750 0.40750
0.48225 0.48225 0.48225
0.55700 0.55700 0.55700
0.63175 0.63175 0.63175
0.70650 0.70650 0.70650
0.55425 0.55425 0.55425
0.62900 0.62900 0.62900
0.70375 0.70375 0.70375
0.77850 0.77850 0.77850
0.85325 0.85325 0.85325
0.70100 0.70100 0.70100
0.77575 0.77575 0.77575
0.85050 0.85050 0.85050
0.92525 0.92525 0.92525
1.00000 1.00000 1.00000
