lut-to-lightroom-camera-profile/testdata/TEST-bw.cube
#title:TEST PURE B&W
LUT_3D_SIZE 17
0.00000 0.00000 0.00000
0.01869 0.01869 0.01869
0.03737 0.03737 0.03737
0.05606 0.05606 0.05606
0.07475 0.07475 0.07475
0.09344 0.09344 0.09344
0.11213 0.11213 0.11213
0.13081 0.13081 0.13081
0.14950 0.14950 0.14950
0.16819 0.16819 0.16819
0.18687 0.18687 0.18687
0.20556 0.20556 0.20556
0.22425 0.22425 0.22425
0.24294 0.24294 0.24294
0.26162 0.26162 0.26162
0.28031 0.28031 0.28031
0.29900 0.29900 0.29900
0.03669 0.03669 0.03669
0.05537 0.05537 0.05537
0.07406 0.07406 0.07406
0.09275 0.09275 0.09275
0.11144 0.11144 0.11144
0.13012 0.13012 0.13012
0.14881 0.14881 0.14881
0.16750 0.16750 0.16750
0.18619 0.18619 0.18619
0.20487 0.20487 0.20487
0.22356 0.22356 0.22356
0.24225 0.24225 0.24225
0.26094 0.26094 0.26094
0.27963 0.27963 0.27963
0.29831 0.29831 0.29831
0.31700 0.31700 0.31700
0.33569 0.33569 0.33569
0.07337 0.07337 0.07337
0.09206 0.09206 0.09206
0.11075 0.11075 0.11075
0.12944 0.12944 0.12944
0.14813 0.14813 0.14813
0.16681 0.16681 0.16681
0.18550 0.18550 0.18550
0.20419 0.20419 0.20419
0.22287 0.22287 0.22287
0.24156 0.24156 0.24156
0.26025 0.26025 0.26025
0.27894 0.27894 0.27894
0.29763 0.29763 0.29763
0.31631 0.31631 0.31631
0.33500 0.33500 0.33500
0.35369 0.35369 0.35369
0.37238 0.37238 0.37238
0.11006 0.11006 0.11006
0.12875 0.12875 0.12875
0.14744 0.14744 0.14744
0.16612 0.16612 0.16612
0.18481 0.18481 0.18481
0.20350 0.20350 0.20350
0.22219 0.22219 0.22219
0.24088 0.24088 0.24088
0.25956 0.25956 0.25956
0.27825 0.27825 0.27825
0.29694 0.29694 0.29694
0.31562 0.31562 0.31562
0.33431 0.33431 0.33431
0.35300 0.35300 0.35300
0.37169 0.37169 0.37169
0.39037 0.39037 0.39037
0.40906 0.40906 0.40906
0.14675 0.14675 0.14675
0.16544 0.16544 0.16544
0.18412 0.18412 0.18412
0.20281 0.20281 0.20281
0.22150 0.22150 0.22150
0.24019 0.24019 0.24019
0.25887 0.25887 0.25887
0.27756 0.27756 0.27756
0.29625 0.29625 0.29625
0.31494 0.31494 0.31494
0.33362 0.33362 0.33362
0.35231 0.35231 0.35231
0.37100 0.37100 0.37100
0.38969 0.38969 0.38969
0.40837 0.40837 0.40837
0.42706 0.42706 0.42706
0.44575 0.44575 0.44575
0.18344 0.18344 0.18344
0.20212 0.20212 0.20212
0.22081 0.22081 0.22081
0.23950 0.23950 0.23950
0.25819 0.25819 0.25819
0.27687 0.27687 0.27687
0.29556 0.29556 0.29556
0.31425 0.31425 0.31425
0.33294 0.33294 0.33294
0.35162 0.35162 0.35162
0.37031 0.37031 0.37031
0.38900 0.38900 0.38900
0.40769 0.40769 0.40769
0.42637 0.42637 0.42637
0.44506 0.44506 0.44506
0.46375 0.46375 0.46375
0.48244 0.48244 0.48244
0.22012 0.22012 0.22012
0.23881 0.23881 0.23881
0.25750 0.25750 0.25750
0.27619 0.27619 0.27619
0.29487 0.29487 0.29487
0.31356 0.31356 0.31356
0.33225 0.33225 0.33225
0.35094 0.35094 0.35094
0.36962 0.36962 0.36962
0.38831 0.38831 0.38831
0.40700 0.40700 0.40700
0.42569 0.42569 0.42569
0.44437 0.44437 0.44437
0.46306 0.46306 0.46306
0.48175 0.48175 0.48175
0.50044 0.50044 0.50044
0.51912 0.51912 0.51912
0.25681 0.25681 0.25681
0.27550 0.27550 0.27550
0.29419 0.29419 0.29419
0.31288 0.31288 0.31288
0.33156 0.33156 0.33156
0.35025 0.35025 0.35025
0.36894 0.36894 0.36894
0.38762 0.38762 0.38762
0.40631 0.40631 0.40631
0.42500 0.42500 0.42500
0.44369 0.44369 0.44369
0.46237 0.46237 0.46237
0.48106 0.48106 0.48106
0.49975 0.49975 0.49975
0.51844 0.51844 0.51844
0.53712 0.53712 0.53712
0.55581 0.55581 0.55581
0.29350 0.29350 0.29350
0.31219 0.31219 0.31219
0.33087 0.33087 0.33087
0.34956 0.34956 0.34956
0.36825 0.36825 0.36825
0.38694 0.38694 0.38694
0.40563 0.40563 0.40563
0.42431 0.42431 0.42431
0.44300 0.44300 0.44300
0.46169 0.46169 0.46169
0.48037 0.48037 0.48037
0.49906 0.49906 0.49906
0.51775 0.51775 0.51775
0.53644 0.53644 0.53644
0.55512 0.55512 0.55512
0.57381 0.57381 0.57381
0.59250 0.59250 0.59250
0.33019 0.33019 0.33019
0.34887 0.34887 0.34887
0.36756 0.36756 0.36756
0.38625 0.38625 0.38625
0.40494 0.40494 0.40494
0.42362 0.42362 0.42362
0.44231 0.44231 0.44231
0.46100 0.46100 0.46100
0.47969 0.47969 0.47969
0.49837 0.49837 0.49837
0.51706 0.51706 0.51706
0.53575 0.53575 0.53575
0.55444 0.55444 0.55444
0.57312 0.57312 0.57312
0.59181 0.59181 0.59181
0.61050 0.61050 0.61050
0.62919 0.62919 0.62919
0.36687 0.36687 0.36687
0.38556 0.38556 0.38556
0.40425 0.40425 0.40425
0.42294 0.42294 0.42294
0.44162 0.44162 0.44162
0.46031 0.46031 0.46031
0.47900 0.47900 0.47900
0.49769 0.49769 0.49769
0.51637 0.51637 0.51637
0.53506 0.53506 0.53506
0.55375 0.55375 0.55375
0.57244 0.57244 0.57244
0.59112 0.59112 0.59112
0.60981 0.60981 0.60981
0.62850 0.62850 0.62850
0.64719 0.64719 0.64719
0.66587 0.66587 0.66587
0.40356 0.40356 0.40356
0.42225 0.42225 0.42225
0.44094 0.44094 0.44094
0.45963 0.45963 0.45963
0.47831 0.47831 0.47831
0.49700 0.49700 0.49700
0.51569 0.51569 0.51569
0.53438 0.53438 0.53438
0.55306 0.55306 0.55306
0.57175 0.57175 0.57175
0.59044 0.59044 0.59044
0.60912 0.60912 0.60912
0.62781 0.62781 0.62781
0.64650 0.64650 0.64650
0.66519 0.66519 0.66519
0.68388 0.68388 0.68388
0.70256 0.70256 0.70256
0.44025 0.44025 0.44025
0.45894 0.45894 0.45894
0.47762 0.47762 0.47762
0.49631 0.49631 0.49631
0.51500 0.51500 0.51500
0.53369 0.53369 0.53369
0.55237 0.55237 0.55237
0.57106 0.57106 0.57106
0.58975 0.58975 0.58975
0.60844 0.60844 0.60844
0.62712 0.62712 0.62712
0.64581 0.64581 0.64581
0.66450 0.66450 0.66450
0.68319 0.68319 0.68319
0.70188 0.70188 0.70188
0.72056 0.72056 0.72056
0.73925 0.73925 0.73925
0.47694 0.47694 0.47694
0.49562 0.49562 0.49562
0.51431 0.51431 0.51431
0.53300 0.53300 0.53300
0.55169 0.55169 0.55169
0.57037 0.57037 0.57037
0.58906 0.58906 0.58906
0.60775 0.60775 0.60775
0.62644 0.62644 0.62644
0.64512 0.64512 0.64512
0.66381 0.66381 0.66381
0.68250 0.68250 0.68250
0.70119 0.70119 0.70119
0.71987 0.71987 0.71987
0.73856 0.73856 0.73856
0.75725 0.75725 0.75725
0.77594 0.77594 0.77594
0.51362 0.51362 0.51362
0.53231 0.53231 0.53231
0.55100 0.55100 0.55100
0.56969 0.56969 0.56969
0.58837 0.58837 0.58837
0.60706 0.60706 0.60706
0.62575 0.62575 0.62575
0.64444 0.64444 0.64444
0.66312 0.66312 0.66312
0.68181 0.68181 0.68181
0.70050 0.70050 0.70050
0.71919 0.71919 0.71919
0.73788 0.73788 0.73788
0.75656 0.75656 0.75656
0.77525 0.77525 0.77525
0.79394 0.79394 0.79394
0.81262 0.81262 0.81262
0.55031 0.55031 0.55031
0.56900 0.56900 0.56900
0.58769 0.58769 0.58769
0.60637 0.60637 0.60637
0.62506 0.62506 0.62506
0.64375 0.64375 0.64375
0.66244 0.66244 0.66244
0.68112 0.68112 0.68112
0.69981 0.69981 0.69981
0.71850 0.71850 0.71850
0.73719 0.73719 0.73719
0.75587 0.75587 0.75587
0.77456 0.77456 0.77456
0.79325 0.79325 0.79325
0.81194 0.81194 0.81194
0.83062 0.83062 0.83062
0.84931 0.84931 0.84931
0.58700 0.58700 0.58700
0.60569 0.60569 0.60569
0.62438 0.62438 0.62438
0.64306 0.64306 0.64306
0.66175 0.66175 0.66175
0.68044 0.68044 0.68044
0.69912 0.69912 0.69912
0.71781 0.71781 0.71781
0.73650 0.73650 0.73650
0.75519 0.75519 0.75519
0.77387 0.77387 0.77387
0.79256 0.79256 0.79256
0.81125 0.81125 0.81125
0.82994 0.82994 0.82994
0.84862 0.84862 0.84862
0.86731 0.86731 0.86731
0.88600 0.88600 0.88600
0.00713 0.00713 0.00713
0.02581 0.02581 0.02581
0.04450 0.04450 0.04450
0.06319 0.06319 0.06319
0.08188 0.08188 0.08188
0.10056 0.10056 0.10056
0.11925 0.11925 0.11925
0.13794 0.13794 0.13794
0.15662 0.15662 0.15662
0.17531 0.17531 0.17531
0.19400 0.19400 0.19400
0.21269 0.21269 0.21269
0.23137 0.23137 0.23137
0.25006 0.25006 0.25006
0.26875 0.26875 0.26875
0.28744 0.28744 0.28744
0.30612 0.30612 0.30612
0.04381 0.04381 0.04381
0.06250 0.06250 0.06250
0.08119 0.08119 0.08119
0.09988 0.09988 0.09988
0.11856 0.11856 0.11856
0.13725 0.13725 0.13725
0.15594 0.15594 0.15594
0.17462 0.17462 0.17462
0.19331 0.19331 0.19331
0.21200 0.21200 0.21200
0.23069 0.23069 0.23069
0.24937 0.24937 0.24937
0.26806 0.26806 0.26806
0.28675 0.28675 0.28675
0.30544 0.30544 0.30544
0.32412 0.32412 0.32412
0.34281 0.34281 0.34281
0.08050 0.08050 0.08050
0.09919 0.09919 0.09919
0.11787 0.11787 0.11787
0.13656 0.13656 0.13656
0.15525 0.15525 0.15525
0.17394 0.17394 0.17394
0.19262 0.19262 0.19262
0.21131 0.21131 0.21131
0.23000 0.23000 0.23000
0.24869 0.24869 0.24869
0.26737 0.26737 0.26737
0.28606 0.28606 0.28606
0.30475 0.30475 0.30475
0.32344 0.32344 0.32344
0.34212 0.34212 0.34212
0.36081 0.36081 0.36081
0.37950 0.37950 0.37950
0.11719 0.11719 0.11719
0.13587 0.13587 0.13587
0.15456 0.15456 0.15456
0.17325 0.17325 0.17325
0.19194 0.19194 0.19194
0.21062 0.21062 0.21062
0.22931 0.22931 0.22931
0.24800 0.24800 0.24800
0.26669 0.26669 0.26669
0.28537 0.28537 0.28537
0.30406 0.30406 0.30406
0.32275 0.32275 0.32275
0.34144 0.34144 0.34144
0.36012 0.36012 0.36012
0.37881 0.37881 0.37881
0.39750 0.39750 0.39750
0.41619 0.41619 0.41619
0.15387 0.15387 0.15387
0.17256 0.17256 0.17256
0.19125 0.19125 0.19125
0.20994 0.20994 0.20994
0.22862 0.22862 0.22862
0.24731 0.24731 0.24731
0.26600 0.26600 0.26600
0.28469 0.28469 0.28469
0.30338 0.30338 0.30338
0.32206 0.32206 0.32206
0.34075 0.34075 0.34075
0.35944 0.35944 0.35944
0.37812 0.37812 0.37812
0.39681 0.39681 0.39681
0.41550 0.41550 0.41550
0.43419 0.43419 0.43419
0.45287 0.45287 0.45287
0.19056 0.19056 0.19056
0.20925 0.20925 0.20925
0.22794 0.22794 0.22794
0.24662 0.24662 0.24662
0.26531 0.26531 0.26531
0.28400 0.28400 0.28400
0.30269 0.30269 0.30269
0.32137 0.32137 0.32137
0.34006 0.34006 0.34006
0.35875 0.35875 0.35875
0.37744 0.37744 0.37744
0.39612 0.39612 0.39612
0.41481 0.41481 0.41481
0.43350 0.43350 0.43350
0.45219 0.45219 0.45219
0.47087 0.47087 0.47087
0.48956 0.48956 0.48956
0.22725 0.22725 0.22725
0.24594 0.24594 0.24594
0.26462 0.26462 0.26462
0.28331 0.28331 0.28331
0.30200 0.30200 0.30200
0.32069 0.32069 0.32069
0.33937 0.33937 0.33937
0.35806 0.35806 0.35806
0.37675 0.37675 0.37675
0.39544 0.39544 0.39544
0.41412 0.41412 0.41412
0.43281 0.43281 0.43281
0.45150 0.45150 0.45150
0.47019 0.47019 0.47019
0.48888 0.48888 0.48888
0.50756 0.50756 0.50756
0.52625 0.52625 0.52625
0.26394 0.26394 0.26394
0.28263 0.28263 0.28263
0.30131 0.30131 0.30131
0.32000 0.32000 0.32000
0.33869 0.33869 0.33869
0.35737 0.35737 0.35737
0.37606 0.37606 0.37606
0.39475 0.39475 0.39475
0.41344 0.41344 0.41344
0.43212 0.43212 0.43212
0.45081 0.45081 0.45081
0.46950 0.46950 0.46950
0.48819 0.48819 0.48819
0.50688 0.50688 0.50688
0.52556 0.52556 0.52556
0.54425 0.54425 0.54425
0.56294 0.56294 0.56294
0.30062 0.30062 0.30062
0.31931 0.31931 0.31931
0.33800 0.33800 0.33800
0.35669 0.35669 0.35669
0.37537 0.37537 0.37537
0.39406 0.39406 0.39406
0.41275 0.41275 0.41275
0.43144 0.43144 0.43144
0.45012 0.45012 0.45012
0.46881 0.46881 0.46881
0.48750 0.48750 0.48750
0.50619 0.50619 0.50619
0.52487 0.52487 0.52487
0.54356 0.54356 0.54356
0.56225 0.56225 0.56225
0.58094 0.58094 0.58094
0.59963 0.59963 0.59963
0.33731 0.33731 0.33731
0.35600 0.35600 0.35600
0.37469 0.37469 0.37469
0.39337 0.39337 0.39337
0.41206 0.41206 0.41206
0.43075 0.43075 0.43075
0.44944 0.44944 0.44944
0.46812 0.46812 0.46812
0.48681 0.48681 0.48681
0.50550 0.50550 0.50550
0.52419 0.52419 0.52419
0.54287 0.54287 0.54287
0.56156 0.56156 0.56156
0.58025 0.58025 0.58025
0.59894 0.59894 0.59894
0.61762 0.61762 0.61762
0.63631 0.63631 0.63631
0.37400 0.37400 0.37400
0.39269 0.39269 0.39269
0.41137 0.41137 0.41137
0.43006 0.43006 0.43006
0.44875 0.44875 0.44875
0.46744 0.46744 0.46744
0.48612 0.48612 0.48612
0.50481 0.50481 0.50481
0.52350 0.52350 0.52350
0.54219 0.54219 0.54219
0.56088 0.56088 0.56088
0.57956 0.57956 0.57956
0.59825 0.59825 0.59825
0.61694 0.61694 0.61694
0.63562 0.63562 0.63562
0.65431 0.65431 0.65431
0.67300 0.67300 0.67300
0.41069 0.41069 0.41069
0.42938 0.42938 0.42938
0.44806 0.44806 0.44806
0.46675 0.46675 0.46675
0.48544 0.48544 0.48544
0.50413 0.50413 0.50413
0.52281 0.52281 0.52281
0.54150 0.54150 0.54150
0.56019 0.56019 0.56019
0.57888 0.57888 0.57888
0.59756 0.59756 0.59756
0.61625 0.61625 0.61625
0.63494 0.63494 0.63494
0.65363 0.65363 0.65363
0.67231 0.67231 0.67231
0.69100 0.69100 0.69100
0.70969 0.70969 0.70969
0.44737 0.44737 0.44737
0.46606 0.46606 0.46606
0.48475 0.48475 0.48475
0.50344 0.50344 0.50344
0.52213 0.52213 0.52213
0.54081 0.54081 0.54081
0.55950 0.55950 0.55950
0.57819 0.57819 0.57819
0.59688 0.59688 0.59688
0.61556 0.61556 0.61556
0.63425 0.63425 0.63425
0.65294 0.65294 0.65294
0.67163 0.67163 0.67163
0.69031 0.69031 0.69031
0.70900 0.70900 0.70900
0.72769 0.72769 0.72769
0.74638 0.74638 0.74638
0.48406 0.48406 0.48406
0.50275 0.50275 0.50275
0.52144 0.52144 0.52144
0.54012 0.54012 0.54012
0.55881 0.55881 0.55881
0.57750 0.57750 0.57750
0.59619 0.59619 0.59619
0.61488 0.61488 0.61488
0.63356 0.63356 0.63356
0.65225 0.65225 0.65225
0.67094 0.67094 0.67094
0.68962 0.68962 0.68962
0.70831 0.70831 0.70831
0.72700 0.72700 0.72700
0.74569 0.74569 0.74569
0.76438 0.76438 0.76438
0.78306 0.78306 0.78306
0.52075 0.52075 0.52075
0.53944 0.53944 0.53944
0.55813 0.55813 0.55813
0.57681 0.57681 0.57681
0.59550 0.59550 0.59550
0.61419 0.61419 0.61419
0.63288 0.63288 0.63288
0.65156 0.65156 0.65156
0.67025 0.67025 0.67025
0.68894 0.68894 0.68894
0.70763 0.70763 0.70763
0.72631 0.72631 0.72631
0.74500 0.74500 0.74500
0.76369 0.76369 0.76369
0.78238 0.78238 0.78238
0.80106 0.80106 0.80106
0.81975 0.81975 0.81975
0.55744 0.55744 0.55744
0.57612 0.57612 0.57612
0.59481 0.59481 0.59481
0.61350 0.61350 0.61350
0.63219 0.63219 0.63219
0.65087 0.65087 0.65087
0.66956 0.66956 0.66956
0.68825 0.68825 0.68825
0.70694 0.70694 0.70694
0.72562 0.72562 0.72562
0.74431 0.74431 0.74431
0.76300 0.76300 0.76300
0.78169 0.78169 0.78169
0.80038 0.80038 0.80038
0.81906 0.81906 0.81906
0.83775 0.83775 0.83775
0.85644 0.85644 0.85644
0.59413 0.59413 0.59413
0.61281 0.61281 0.61281
0.63150 0.63150 0.63150
0.65019 0.65019 0.65019
0.66887 0.66887 0.66887
0.68756 0.68756 0.68756
0.70625 0.70625 0.70625
0.72494 0.72494 0.72494
0.74362 0.74362 0.74362
0.76231 0.76231 0.76231
0.78100 0.78100 0.78100
0.79969 0.79969 0.79969
0.81838 0.81838 0.81838
0.83706 0.83706 0.83706
0.85575 0.85575 0.85575
0.87444 0.87444 0.87444
0.89312 0.89312 0.89312
0.01425 0.01425 0.01425
0.03294 0.03294 0.03294
0.05162 0.05162 0.05162
0.07031 0.07031 0.07031
0.08900 0.08900 0.08900
0.10769 0.10769 0.10769
0.12638 0.12638 0.12638
0.14506 0.14506 0.14506
0.16375 0.16375 0.16375
0.18244 0.18244 0.18244
0.20112 0.20112 0.20112
0.21981 0.21981 0.21981
0.23850 0.23850 0.23850
0.25719 0.25719 0.25719
0.27587 0.27587 0.27587
0.29456 0.29456 0.29456
0.31325 0.31325 0.31325
0.05094 0.05094 0.05094
0.06962 0.06962 0.06962
0.08831 0.08831 0.08831
0.10700 0.10700 0.10700
0.12569 0.12569 0.12569
0.14438 0.14438 0.14438
0.16306 0.16306 0.16306
0.18175 0.18175 0.18175
0.20044 0.20044 0.20044
0.21912 0.21912 0.21912
0.23781 0.23781 0.23781
0.25650 0.25650 0.25650
0.27519 0.27519 0.27519
0.29387 0.29387 0.29387
0.31256 0.31256 0.31256
0.33125 0.33125 0.33125
0.34994 0.34994 0.34994
0.08762 0.08762 0.08762
0.10631 0.10631 0.10631
0.12500 0.12500 0.12500
0.14369 0.14369 0.14369
0.16238 0.16238 0.16238
0.18106 0.18106 0.18106
0.19975 0.19975 0.19975
0.21844 0.21844 0.21844
0.23713 0.23713 0.23713
0.25581 0.25581 0.25581
0.27450 0.27450 0.27450
0.29319 0.29319 0.29319
0.31188 0.31188 0.31188
0.33056 0.33056 0.33056
0.34925 0.34925 0.34925
0.36794 0.36794 0.36794
0.38662 0.38662 0.38662
0.12431 0.12431 0.12431
0.14300 0.14300 0.14300
0.16169 0.16169 0.16169
0.18038 0.18038 0.18038
0.19906 0.19906 0.19906
0.21775 0.21775 0.21775
0.23644 0.23644 0.23644
0.25512 0.25512 0.25512
0.27381 0.27381 0.27381
0.29250 0.29250 0.29250
0.31119 0.31119 0.31119
0.32987 0.32987 0.32987
0.34856 0.34856 0.34856
0.36725 0.36725 0.36725
0.38594 0.38594 0.38594
0.40462 0.40462 0.40462
0.42331 0.42331 0.42331
0.16100 0.16100 0.16100
0.17969 0.17969 0.17969
0.19837 0.19837 0.19837
0.21706 0.21706 0.21706
0.23575 0.23575 0.23575
0.25444 0.25444 0.25444
0.27312 0.27312 0.27312
0.29181 0.29181 0.29181
0.31050 0.31050 0.31050
0.32919 0.32919 0.32919
0.34787 0.34787 0.34787
0.36656 0.36656 0.36656
0.38525 0.38525 0.38525
0.40394 0.40394 0.40394
0.42262 0.42262 0.42262
0.44131 0.44131 0.44131
0.46000 0.46000 0.46000
0.19769 0.19769 0.19769
0.21637 0.21637 0.21637
0.23506 0.23506 0.23506
0.25375 0.25375 0.25375
0.27244 0.27244 0.27244
0.29112 0.29112 0.29112
0.30981 0.30981 0.30981
0.32850 0.32850 0.32850
0.34719 0.34719 0.34719
0.36587 0.36587 0.36587
0.38456 0.38456 0.38456
0.40325 0.40325 0.40325
0.42194 0.42194 0.42194
0.44062 0.44062 0.44062
0.45931 0.45931 0.45931
0.47800 0.47800 0.47800
0.49669 0.49669 0.49669
0.23438 0.23438 0.23438
0.25306 0.25306 0.25306
0.27175 0.27175 0.27175
0.29044 0.29044 0.29044
0.30912 0.30912 0.30912
0.32781 0.32781 0.32781
0.34650 0.34650 0.34650
0.36519 0.36519 0.36519
0.38387 0.38387 0.38387
0.40256 0.40256 0.40256
0.42125 0.42125 0.42125
0.43994 0.43994 0.43994
0.45862 0.45862 0.45862
0.47731 0.47731 0.47731
0.49600 0.49600 0.49600
0.51469 0.51469 0.51469
0.53337 0.53337 0.53337
0.27106 0.27106 0.27106
0.28975 0.28975 0.28975
0.30844 0.30844 0.30844
0.32712 0.32712 0.32712
0.34581 0.34581 0.34581
0.36450 0.36450 0.36450
0.38319 0.38319 0.38319
0.40187 0.40187 0.40187
0.42056 0.42056 0.42056
0.43925 0.43925 0.43925
0.45794 0.45794 0.45794
0.47662 0.47662 0.47662
0.49531 0.49531 0.49531
0.51400 0.51400 0.51400
0.53269 0.53269 0.53269
0.55137 0.55137 0.55137
0.57006 0.57006 0.57006
0.30775 0.30775 0.30775
0.32644 0.32644 0.32644
0.34512 0.34512 0.34512
0.36381 0.36381 0.36381
0.38250 0.38250 0.38250
0.40119 0.40119 0.40119
0.41987 0.41987 0.41987
0.43856 0.43856 0.43856
0.45725 0.45725 0.45725
0.47594 0.47594 0.47594
0.49462 0.49462 0.49462
0.51331 0.51331 0.51331
0.53200 0.53200 0.53200
0.55069 0.55069 0.55069
0.56937 0.56937 0.56937
0.58806 0.58806 0.58806
0.60675 0.60675 0.60675
0.34444 0.34444 0.34444
0.36312 0.36312 0.36312
0.38181 0.38181 0.38181
0.40050 0.40050 0.40050
0.41919 0.41919 0.41919
0.43787 0.43787 0.43787
0.45656 0.45656 0.45656
0.47525 0.47525 0.47525
0.49394 0.49394 0.49394
0.51262 0.51262 0.51262
0.53131 0.53131 0.53131
0.55000 0.55000 0.55000
0.56869 0.56869 0.56869
0.58737 0.58737 0.58737
0.60606 0.60606 0.60606
0.62475 0.62475 0.62475
0.64344 0.64344 0.64344
0.38112 0.38112 0.38112
0.39981 0.39981 0.39981
0.41850 0.41850 0.41850
0.43719 0.43719 0.43719
0.45587 0.45587 0.45587
0.47456 0.47456 0.47456
0.49325 0.49325 0.49325
0.51194 0.51194 0.51194
0.53062 0.53062 0.53062
0.54931 0.54931 0.54931
0.56800 0.56800 0.56800
0.58669 0.58669 0.58669
0.60537 0.60537 0.60537
0.62406 0.62406 0.62406
0.64275 0.64275 0.64275
0.66144 0.66144 0.66144
0.68012 0.68012 0.68012
0.41781 0.41781 0.41781
0.43650 0.43650 0.43650
0.45519 0.45519 0.45519
0.47387 0.47387 0.47387
0.49256 0.49256 0.49256
0.51125 0.51125 0.51125
0.52994 0.52994 0.52994
0.54863 0.54863 0.54863
0.56731 0.56731 0.56731
0.58600 0.58600 0.58600
0.60469 0.60469 0.60469
0.62337 0.62337 0.62337
0.64206 0.64206 0.64206
0.66075 0.66075 0.66075
0.67944 0.67944 0.67944
0.69812 0.69812 0.69812
0.71681 0.71681 0.71681
0.45450 0.45450 0.45450
0.47319 0.47319 0.47319
0.49187 0.49187 0.49187
0.51056 0.51056 0.51056
0.52925 0.52925 0.52925
0.54794 0.54794 0.54794
0.56662 0.56662 0.56662
0.58531 0.58531 0.58531
0.60400 0.60400 0.60400
0.62269 0.62269 0.62269
0.64137 0.64137 0.64137
0.66006 0.66006 0.66006
0.67875 0.67875 0.67875
0.69744 0.69744 0.69744
0.71613 0.71613 0.71613
0.73481 0.73481 0.73481
0.75350 0.75350 0.75350
0.49119 0.49119 0.49119
0.50987 0.50987 0.50987
0.52856 0.52856 0.52856
0.54725 0.54725 0.54725
0.56594 0.56594 0.56594
0.58462 0.58462 0.58462
0.60331 0.60331 0.60331
0.62200 0.62200 0.62200
0.64069 0.64069 0.64069
0.65937 0.65937 0.65937
0.67806 0.67806 0.67806
0.69675 0.69675 0.69675
0.71544 0.71544 0.71544
0.73412 0.73412 0.73412
0.75281 0.75281 0.75281
0.77150 0.77150 0.77150
0.79019 0.79019 0.79019
0.52787 0.52787 0.52787
0.54656 0.54656 0.54656
0.56525 0.56525 0.56525
0.58394 0.58394 0.58394
0.60262 0.60262 0.60262
0.62131 0.62131 0.62131
0.64000 0.64000 0.64000
0.65869 0.65869 0.65869
0.67737 0.67737 0.67737
0.69606 0.69606 0.69606
0.71475 0.71475 0.71475
0.73344 0.73344 0.73344
0.75213 0.75213 0.75213
0.77081 0.77081 0.77081
0.78950 0.78950 0.78950
0.80819 0.80819 0.80819
0.82687 0.82687 0.82687
0.56456 0.56456 0.56456
0.58325 0.58325 0.58325
0.60194 0.60194 0.60194
0.62062 0.62062 0.62062
0.63931 0.63931 0.63931
0.65800 0.65800 0.65800
0.67669 0.67669 0.67669
0.69537 0.69537 0.69537
0.71406 0.71406 0.71406
0.73275 0.73275 0.73275
0.75144 0.75144 0.75144
0.77012 0.77012 0.77012
0.78881 0.78881 0.78881
0.80750 0.80750 0.80750
0.82619 0.82619 0.82619
0.84487 0.84487 0.84487
0.86356 0.86356 0.86356
0.60125 0.60125 0.60125
0.61994 0.61994 0.61994
0.63862 0.63862 0.63862
0.65731 0.65731 0.65731
0.67600 0.67600 0.67600
0.69469 0.69469 0.69469
0.71337 0.71337 0.71337
0.73206 0.73206 0.73206
0.75075 0.75075 0.75075
0.76944 0.76944 0.76944
0.78812 0.78812 0.78812
0.80681 0.80681 0.80681
0.82550 0.82550 0.82550
0.84419 0.84419 0.84419
0.86287 0.86287 0.86287
0.88156 0.88156 0.88156
0.90025 0.90025 0.90025
0.02138 0.02138 0.02138
0.04006 0.04006 0.04006
0.05875 0.05875 0.05875
0.07744 0.07744 0.07744
0.09613 0.09613 0.09613
0.11481 0.11481 0.11481
0.13350 0.13350 0.13350
0.15219 0.15219 0.15219
0.17087 0.17087 0.17087
0.18956 0.18956 0.18956
0.20825 0.20825 0.20825
0.22694 0.22694 0.22694
0.24563 0.24563 0.24563
0.26431 0.26431 0.26431
0.28300 0.28300 0.28300
0.30169 0.30169 0.30169
0.32037 0.32037 0.32037
0.05806 0.05806 0.05806
0.07675 0.07675 0.07675
0.09544 0.09544 0.09544
0.11413 0.11413 0.11413
0.13281 0.13281 0.13281
0.15150 0.15150 0.15150
0.17019 0.17019 0.17019
0.18887 0.18887 0.18887
0.20756 0.20756 0.20756
0.22625 0.22625 0.22625
0.24494 0.24494 0.24494
0.26362 0.26362 0.26362
0.28231 0.28231 0.28231
0.30100 0.30100 0.30100
0.31969 0.31969 0.31969
0.33837 0.33837 0.33837
