lut-to-lightroom-camera-profile/testdata/warm.cube
TITLE "Warm Test"
LUT_3D_SIZE 17
0.020000 0.000000 0.000000
0.031904 0.000000 0.000000
0.065547 0.000000 0.000000
0.117822 0.000000 0.000000
0.185625 0.000000 0.000000
0.265850 0.000000 0.000000
0.355391 0.000000 0.000000
0.451143 0.000000 0.000000
0.550000 0.000000 0.000000
0.648857 0.000000 0.000000
0.744609 0.000000 0.000000
0.834150 0.000000 0.000000
0.914375 0.000000 0.000000
0.982178 0.000000 0.000000
1.000000 0.000000 0.000000
1.000000 0.000000 0.000000
1.000000 0.000000 0.000000
0.020000 0.011230 0.000000
0.031904 0.011230 0.000000
0.065547 0.011230 0.000000
0.117822 0.011230 0.000000
0.185625 0.011230 0.000000
0.265850 0.011230 0.000000
0.355391 0.011230 0.000000
0.451143 0.011230 0.000000
0.550000 0.011230 0.000000
0.648857 0.011230 0.000000
0.744609 0.011230 0.000000
0.834150 0.011230 0.000000
0.914375 0.011230 0.000000
0.982178 0.011230 0.000000
1.000000 0.011230 0.000000
1.000000 0.011230 0.000000
1.000000 0.011230 0.000000
0.020000 0.042969 0.000000
0.031904 0.042969 0.000000
0.065547 0.042969 0.000000
0.117822 0.042969 0.000000
0.185625 0.042969 0.000000
0.265850 0.042969 0.000000
0.355391 0.042969 0.000000
0.451143 0.042969 0.000000
0.550000 0.042969 0.000000
0.648857 0.042969 0.000000
0.744609 0.042969 0.000000
0.834150 0.042969 0.000000
0.914375 0.042969 0.000000
0.982178 0.042969 0.000000
1.000000 0.042969 0.000000
1.000000 0.042969 0.000000
1.000000 0.042969 0.000000
0.020000 0.092285 0.000000
0.031904 0.092285 0.000000
0.065547 0.092285 0.000000
0.117822 0.092285 0.000000
0.185625 0.092285 0.000000
0.265850 0.092285 0.000000
0.355391 0.092285 0.000000
0.451143 0.092285 0.000000
0.550000 0.092285 0.000000
0.648857 0.092285 0.000000
0.744609 0.092285 0.000000
0.834150 0.092285 0.000000
0.914375 0.092285 0.000000
0.982178 0.092285 0.000000
1.000000 0.092285 0.000000
1.000000 0.092285 0.000000
1.000000 0.092285 0.000000
0.020000 0.156250 0.000000
0.031904 0.156250 0.000000
0.065547 0.156250 0.000000
0.117822 0.156250 0.000000
0.185625 0.156250 0.000000
0.265850 0.156250 0.000000
0.355391 0.156250 0.000000
0.451143 0.156250 0.000000
0.550000 0.156250 0.000000
0.648857 0.156250 0.000000
0.744609 0.156250 0.000000
0.834150 0.156250 0.000000
0.914375 0.156250 0.000000
0.982178 0.156250 0.000000
1.000000 0.156250 0.000000
1.000000 0.156250 0.000000
1.000000 0.156250 0.000000
0.020000 0.231934 0.000000
0.031904 0.231934 0.000000
0.065547 0.231934 0.000000
0.117822 0.231934 0.000000
0.185625 0.231934 0.000000
0.265850 0.231934 0.000000
0.355391 0.231934 0.000000
0.451143 0.231934 0.000000
0.550000 0.231934 0.000000
0.648857 0.231934 0.000000
0.744609 0.231934 0.000000
0.834150 0.231934 0.000000
0.914375 0.231934 0.000000
0.982178 0.231934 0.000000
1.000000 0.231934 0.000000
1.000000 0.231934 0.000000
1.000000 0.231934 0.000000
0.020000 0.316406 0.000000
0.031904 0.316406 0.000000
0.065547 0.316406 0.000000
0.117822 0.316406 0.000000
0.185625 0.316406 0.000000
0.265850 0.316406 0.000000
0.355391 0.316406 0.000000
0.451143 0.316406 0.000000
0.550000 0.316406 0.000000
0.648857 0.316406 0.000000
0.744609 0.316406 0.000000
0.834150 0.316406 0.000000
0.914375 0.316406 0.000000
0.982178 0.316406 0.000000
1.000000 0.316406 0.000000
1.000000 0.316406 0.000000
1.000000 0.316406 0.000000
0.020000 0.406738 0.000000
0.031904 0.406738 0.000000
0.065547 0.406738 0.000000
0.117822 0.406738 0.000000
0.185625 0.406738 0.000000
0.265850 0.406738 0.000000
0.355391 0.406738 0.000000
0.451143 0.406738 0.000000
0.550000 0.406738 0.000000
0.648857 0.406738 0.000000
0.744609 0.406738 0.000000
0.834150 0.406738 0.000000
0.914375 0.406738 0.000000
0.982178 0.406738 0.000000
1.000000 0.406738 0.000000
1.000000 0.406738 0.000000
1.000000 0.406738 0.000000
0.020000 0.500000 0.000000
0.031904 0.500000 0.000000
0.065547 0.500000 0.000000
0.117822 0.500000 0.000000
0.185625 0.500000 0.000000
0.265850 0.500000 0.000000
0.355391 0.500000 0.000000
0.451143 0.500000 0.000000
0.550000 0.500000 0.000000
0.648857 0.500000 0.000000
0.744609 0.500000 0.000000
0.834150 0.500000 0.000000
0.914375 0.500000 0.000000
0.982178 0.500000 0.000000
1.000000 0.500000 0.000000
1.000000 0.500000 0.000000
1.000000 0.500000 0.000000
0.020000 0.593262 0.000000
0.031904 0.593262 0.000000
0.065547 0.593262 0.000000
0.117822 0.593262 0.000000
0.185625 0.593262 0.000000
0.265850 0.593262 0.000000
0.355391 0.593262 0.000000
0.451143 0.593262 0.000000
0.550000 0.593262 0.000000
0.648857 0.593262 0.000000
0.744609 0.593262 0.000000
0.834150 0.593262 0.000000
0.914375 0.593262 0.000000
0.982178 0.593262 0.000000
1.000000 0.593262 0.000000
1.000000 0.593262 0.000000
1.000000 0.593262 0.000000
0.020000 0.683594 0.000000
0.031904 0.683594 0.000000
0.065547 0.683594 0.000000
0.117822 0.683594 0.000000
0.185625 0.683594 0.000000
0.265850 0.683594 0.000000
0.355391 0.683594 0.000000
0.451143 0.683594 0.000000
0.550000 0.683594 0.000000
0.648857 0.683594 0.000000
0.744609 0.683594 0.000000
0.834150 0.683594 0.000000
0.914375 0.683594 0.000000
0.982178 0.683594 0.000000
1.000000 0.683594 0.000000
1.000000 0.683594 0.000000
1.000000 0.683594 0.000000
0.020000 0.768066 0.000000
0.031904 0.768066 0.000000
0.065547 0.768066 0.000000
0.117822 0.768066 0.000000
0.185625 0.768066 0.000000
0.265850 0.768066 0.000000
0.355391 0.768066 0.000000
0.451143 0.768066 0.000000
0.550000 0.768066 0.000000
0.648857 0.768066 0.000000
0.744609 0.768066 0.000000
0.834150 0.768066 0.000000
0.914375 0.768066 0.000000
0.982178 0.768066 0.000000
1.000000 0.768066 0.000000
1.000000 0.768066 0.000000
1.000000 0.768066 0.000000
0.020000 0.843750 0.000000
0.031904 0.843750 0.000000
0.065547 0.843750 0.000000
0.117822 0.843750 0.000000
0.185625 0.843750 0.000000
0.265850 0.843750 0.000000
0.355391 0.843750 0.000000
0.451143 0.843750 0.000000
0.550000 0.843750 0.000000
0.648857 0.843750 0.000000
0.744609 0.843750 0.000000
0.834150 0.843750 0.000000
0.914375 0.843750 0.000000
0.982178 0.843750 0.000000
1.000000 0.843750 0.000000
1.000000 0.843750 0.000000
1.000000 0.843750 0.000000
0.020000 0.907715 0.000000
0.031904 0.907715 0.000000
0.065547 0.907715 0.000000
0.117822 0.907715 0.000000
0.185625 0.907715 0.000000
0.265850 0.907715 0.000000
0.355391 0.907715 0.000000
0.451143 0.907715 0.000000
0.550000 0.907715 0.000000
0.648857 0.907715 0.000000
0.744609 0.907715 0.000000
0.834150 0.907715 0.000000
0.914375 0.907715 0.000000
0.982178 0.907715 0.000000
1.000000 0.907715 0.000000
1.000000 0.907715 0.000000
1.000000 0.907715 0.000000
0.020000 0.957031 0.000000
0.031904 0.957031 0.000000
0.065547 0.957031 0.000000
0.117822 0.957031 0.000000
0.185625 0.957031 0.000000
0.265850 0.957031 0.000000
0.355391 0.957031 0.000000
0.451143 0.957031 0.000000
0.550000 0.957031 0.000000
0.648857 0.957031 0.000000
0.744609 0.957031 0.000000
0.834150 0.957031 0.000000
0.914375 0.957031 0.000000
0.982178 0.957031 0.000000
1.000000 0.957031 0.000000
1.000000 0.957031 0.000000
1.000000 0.957031 0.000000
0.020000 0.988770 0.000000
0.031904 0.988770 0.000000
0.065547 0.988770 0.000000
0.117822 0.988770 0.000000
0.185625 0.988770 0.000000
0.265850 0.988770 0.000000
0.355391 0.988770 0.000000
0.451143 0.988770 0.000000
0.550000 0.988770 0.000000
0.648857 0.988770 0.000000
0.744609 0.988770 0.000000
0.834150 0.988770 0.000000
0.914375 0.988770 0.000000
0.982178 0.988770 0.000000
1.000000 0.988770 0.000000
1.000000 0.988770 0.000000
1.000000 0.988770 0.000000
0.020000 1.000000 0.000000
0.031904 1.000000 0.000000
0.065547 1.000000 0.000000
0.117822 1.000000 0.000000
0.185625 1.000000 0.000000
0.265850 1.000000 0.000000
0.355391 1.000000 0.000000
0.451143 1.000000 0.000000
0.550000 1.000000 0.000000
0.648857 1.000000 0.000000
0.744609 1.000000 0.000000
0.834150 1.000000 0.000000
0.914375 1.000000 0.000000
0.982178 1.000000 0.000000
1.000000 1.000000 0.000000
1.000000 1.000000 0.000000
1.000000 1.000000 0.000000
0.020000 0.000000 0.010332
0.031904 0.000000 0.010332
0.065547 0.000000 0.010332
0.117822 0.000000 0.010332
0.185625 0.000000 0.010332
0.265850 0.000000 0.010332
0.355391 0.000000 0.010332
0.451143 0.000000 0.010332
0.550000 0.000000 0.010332
0.648857 0.000000 0.010332
0.744609 0.000000 0.010332
0.834150 0.000000 0.010332
0.914375 0.000000 0.010332
0.982178 0.000000 0.010332
1.000000 0.000000 0.010332
1.000000 0.000000 0.010332
1.000000 0.000000 0.010332
0.020000 0.011230 0.010332
0.031904 0.011230 0.010332
0.065547 0.011230 0.010332
0.117822 0.011230 0.010332
0.185625 0.011230 0.010332
0.265850 0.011230 0.010332
0.355391 0.011230 0.010332
0.451143 0.011230 0.010332
0.550000 0.011230 0.010332
0.648857 0.011230 0.010332
0.744609 0.011230 0.010332
0.834150 0.011230 0.010332
0.914375 0.011230 0.010332
0.982178 0.011230 0.010332
1.000000 0.011230 0.010332
1.000000 0.011230 0.010332
1.000000 0.011230 0.010332
0.020000 0.042969 0.010332
0.031904 0.042969 0.010332
0.065547 0.042969 0.010332
0.117822 0.042969 0.010332
0.185625 0.042969 0.010332
0.265850 0.042969 0.010332
0.355391 0.042969 0.010332
0.451143 0.042969 0.010332
0.550000 0.042969 0.010332
0.648857 0.042969 0.010332
0.744609 0.042969 0.010332
0.834150 0.042969 0.010332
0.914375 0.042969 0.010332
0.982178 0.042969 0.010332
1.000000 0.042969 0.010332
1.000000 0.042969 0.010332
1.000000 0.042969 0.010332
0.020000 0.092285 0.010332
0.031904 0.092285 0.010332
0.065547 0.092285 0.010332
0.117822 0.092285 0.010332
0.185625 0.092285 0.010332
0.265850 0.092285 0.010332
0.355391 0.092285 0.010332
0.451143 0.092285 0.010332
0.550000 0.092285 0.010332
0.648857 0.092285 0.010332
0.744609 0.092285 0.010332
0.834150 0.092285 0.010332
0.914375 0.092285 0.010332
0.982178 0.092285 0.010332
1.000000 0.092285 0.010332
1.000000 0.092285 0.010332
1.000000 0.092285 0.010332
0.020000 0.156250 0.010332
0.031904 0.156250 0.010332
0.065547 0.156250 0.010332
0.117822 0.156250 0.010332
0.185625 0.156250 0.010332
0.265850 0.156250 0.010332
0.355391 0.156250 0.010332
0.451143 0.156250 0.010332
0.550000 0.156250 0.010332
0.648857 0.156250 0.010332
0.744609 0.156250 0.010332
0.834150 0.156250 0.010332
0.914375 0.156250 0.010332
0.982178 0.156250 0.010332
1.000000 0.156250 0.010332
1.000000 0.156250 0.010332
1.000000 0.156250 0.010332
0.020000 0.231934 0.010332
0.031904 0.231934 0.010332
0.065547 0.231934 0.010332
0.117822 0.231934 0.010332
0.185625 0.231934 0.010332
0.265850 0.231934 0.010332
0.355391 0.231934 0.010332
0.451143 0.231934 0.010332
0.550000 0.231934 0.010332
0.648857 0.231934 0.010332
0.744609 0.231934 0.010332
0.834150 0.231934 0.010332
0.914375 0.231934 0.010332
0.982178 0.231934 0.010332
1.000000 0.231934 0.010332
1.000000 0.231934 0.010332
1.000000 0.231934 0.010332
0.020000 0.316406 0.010332
0.031904 0.316406 0.010332
0.065547 0.316406 0.010332
0.117822 0.316406 0.010332
0.185625 0.316406 0.010332
0.265850 0.316406 0.010332
0.355391 0.316406 0.010332
0.451143 0.316406 0.010332
0.550000 0.316406 0.010332
0.648857 0.316406 0.010332
0.744609 0.316406 0.010332
0.834150 0.316406 0.010332
0.914375 0.316406 0.010332
0.982178 0.316406 0.010332
1.000000 0.316406 0.010332
1.000000 0.316406 0.010332
1.000000 0.316406 0.010332
0.020000 0.406738 0.010332
0.031904 0.406738 0.010332
0.065547 0.406738 0.010332
0.117822 0.406738 0.010332
0.185625 0.406738 0.010332
0.265850 0.406738 0.010332
0.355391 0.406738 0.010332
0.451143 0.406738 0.010332
0.550000 0.406738 0.010332
0.648857 0.406738 0.010332
0.744609 0.406738 0.010332
0.834150 0.406738 0.010332
0.914375 0.406738 0.010332
0.982178 0.406738 0.010332
1.000000 0.406738 0.010332
1.000000 0.406738 0.010332
1.000000 0.406738 0.010332
0.020000 0.500000 0.010332
0.031904 0.500000 0.010332
0.065547 0.500000 0.010332
0.117822 0.500000 0.010332
0.185625 0.500000 0.010332
0.265850 0.500000 0.010332
0.355391 0.500000 0.010332
0.451143 0.500000 0.010332
0.550000 0.500000 0.010332
0.648857 0.500000 0.010332
0.744609 0.500000 0.010332
0.834150 0.500000 0.010332
0.914375 0.500000 0.010332
0.982178 0.500000 0.010332
1.000000 0.500000 0.010332
1.000000 0.500000 0.010332
1.000000 0.500000 0.010332
0.020000 0.593262 0.010332
0.031904 0.593262 0.010332
0.065547 0.593262 0.010332
0.117822 0.593262 0.010332
0.185625 0.593262 0.010332
0.265850 0.593262 0.010332
0.355391 0.593262 0.010332
0.451143 0.593262 0.010332
0.550000 0.593262 0.010332
0.648857 0.593262 0.010332
0.744609 0.593262 0.010332
0.834150 0.593262 0.010332
0.914375 0.593262 0.010332
0.982178 0.593262 0.010332
1.000000 0.593262 0.010332
1.000000 0.593262 0.010332
1.000000 0.593262 0.010332
0.020000 0.683594 0.010332
0.031904 0.683594 0.010332
0.065547 0.683594 0.010332
0.117822 0.683594 0.010332
0.185625 0.683594 0.010332
0.265850 0.683594 0.010332
0.355391 0.683594 0.010332
0.451143 0.683594 0.010332
0.550000 0.683594 0.010332
0.648857 0.683594 0.010332
0.744609 0.683594 0.010332
0.834150 0.683594 0.010332
0.914375 0.683594 0.010332
0.982178 0.683594 0.010332
1.000000 0.683594 0.010332
1.000000 0.683594 0.010332
1.000000 0.683594 0.010332
0.020000 0.768066 0.010332
0.031904 0.768066 0.010332
0.065547 0.768066 0.010332
0.117822 0.768066 0.010332
0.185625 0.768066 0.010332
0.265850 0.768066 0.010332
0.355391 0.768066 0.010332
0.451143 0.768066 0.010332
0.550000 0.768066 0.010332
0.648857 0.768066 0.010332
0.744609 0.768066 0.010332
0.834150 0.768066 0.010332
0.914375 0.768066 0.010332
0.982178 0.768066 0.010332
1.000000 0.768066 0.010332
1.000000 0.768066 0.010332
1.000000 0.768066 0.010332
0.020000 0.843750 0.010332
0.031904 0.843750 0.010332
0.065547 0.843750 0.010332
0.117822 0.843750 0.010332
0.185625 0.843750 0.010332
0.265850 0.843750 0.010332
0.355391 0.843750 0.010332
0.451143 0.843750 0.010332
0.550000 0.843750 0.010332
0.648857 0.843750 0.010332
0.744609 0.843750 0.010332
0.834150 0.843750 0.010332
0.914375 0.843750 0.010332
0.982178 0.843750 0.010332
1.000000 0.843750 0.010332
1.000000 0.843750 0.010332
1.000000 0.843750 0.010332
0.020000 0.907715 0.010332
0.031904 0.907715 0.010332
0.065547 0.907715 0.010332
0.117822 0.907715 0.010332
0.185625 0.907715 0.010332
0.265850 0.907715 0.010332
0.355391 0.907715 0.010332
0.451143 0.907715 0.010332
0.550000 0.907715 0.010332
0.648857 0.907715 0.010332
0.744609 0.907715 0.010332
0.834150 0.907715 0.010332
0.914375 0.907715 0.010332
0.982178 0.907715 0.010332
1.000000 0.907715 0.010332
1.000000 0.907715 0.010332
1.000000 0.907715 0.010332
0.020000 0.957031 0.010332
0.031904 0.957031 0.010332
0.065547 0.957031 0.010332
0.117822 0.957031 0.010332
0.185625 0.957031 0.010332
0.265850 0.957031 0.010332
0.355391 0.957031 0.010332
0.451143 0.957031 0.010332
0.550000 0.957031 0.010332
0.648857 0.957031 0.010332
0.744609 0.957031 0.010332
0.834150 0.957031 0.010332
0.914375 0.957031 0.010332
0.982178 0.957031 0.010332
1.000000 0.957031 0.010332
1.000000 0.957031 0.010332
1.000000 0.957031 0.010332
0.020000 0.988770 0.010332
0.031904 0.988770 0.010332
0.065547 0.988770 0.010332
0.117822 0.988770 0.010332
0.185625 0.988770 0.010332
0.265850 0.988770 0.010332
0.355391 0.988770 0.010332
0.451143 0.988770 0.010332
0.550000 0.988770 0.010332
0.648857 0.988770 0.010332
0.744609 0.988770 0.010332
0.834150 0.988770 0.010332
0.914375 0.988770 0.010332
0.982178 0.988770 0.010332
1.000000 0.988770 0.010332
1.000000 0.988770 0.010332
1.000000 0.988770 0.010332
0.020000 1.000000 0.010332
0.031904 1.000000 0.010332
0.065547 1.000000 0.010332
0.117822 1.000000 0.010332
0.185625 1.000000 0.010332
0.265850 1.000000 0.010332
0.355391 1.000000 0.010332
0.451143 1.000000 0.010332
0.550000 1.000000 0.010332
0.648857 1.000000 0.010332
0.744609 1.000000 0.010332
0.834150 1.000000 0.010332
0.914375 1.000000 0.010332
0.982178 1.000000 0.010332
1.000000 1.000000 0.010332
1.000000 1.000000 0.010332
1.000000 1.000000 0.010332
0.020000 0.000000 0.039531
0.031904 0.000000 0.039531
0.065547 0.000000 0.039531
0.117822 0.000000 0.039531
0.185625 0.000000 0.039531
0.265850 0.000000 0.039531
0.355391 0.000000 0.039531
0.451143 0.000000 0.039531
0.550000 0.000000 0.039531
0.648857 0.000000 0.039531
0.744609 0.000000 0.039531
0.834150 0.000000 0.039531
0.914375 0.000000 0.039531
0.982178 0.000000 0.039531
1.000000 0.000000 0.039531
1.000000 0.000000 0.039531
1.000000 0.000000 0.039531
0.020000 0.011230 0.039531
0.031904 0.011230 0.039531
0.065547 0.011230 0.039531
0.117822 0.011230 0.039531
0.185625 0.011230 0.039531
0.265850 0.011230 0.039531
0.355391 0.011230 0.039531
0.451143 0.011230 0.039531
0.550000 0.011230 0.039531
0.648857 0.011230 0.039531
0.744609 0.011230 0.039531
0.834150 0.011230 0.039531
0.914375 0.011230 0.039531
0.982178 0.011230 0.039531
1.000000 0.011230 0.039531
1.000000 0.011230 0.039531
1.000000 0.011230 0.039531
0.020000 0.042969 0.039531
0.031904 0.042969 0.039531
0.065547 0.042969 0.039531
0.117822 0.042969 0.039531
0.185625 0.042969 0.039531
0.265850 0.042969 0.039531
0.355391 0.042969 0.039531
0.451143 0.042969 0.039531
0.550000 0.042969 0.039531
0.648857 0.042969 0.039531
0.744609 0.042969 0.039531
0.834150 0.042969 0.039531
0.914375 0.042969 0.039531
0.982178 0.042969 0.039531
1.000000 0.042969 0.039531
1.000000 0.042969 0.039531
1.000000 0.042969 0.039531
0.020000 0.092285 0.039531
0.031904 0.092285 0.039531
0.065547 0.092285 0.039531
0.117822 0.092285 0.039531
0.185625 0.092285 0.039531
0.265850 0.092285 0.039531
0.355391 0.092285 0.039531
0.451143 0.092285 0.039531
0.550000 0.092285 0.039531
0.648857 0.092285 0.039531
0.744609 0.092285 0.039531
0.834150 0.092285 0.039531
0.914375 0.092285 0.039531
0.982178 0.092285 0.039531
1.000000 0.092285 0.039531
1.000000 0.092285 0.039531
1.000000 0.092285 0.039531
0.020000 0.156250 0.039531
0.031904 0.156250 0.039531
0.065547 0.156250 0.039531
0.117822 0.156250 0.039531
0.185625 0.156250 0.039531
0.265850 0.156250 0.039531
0.355391 0.156250 0.039531
0.451143 0.156250 0.039531
0.550000 0.156250 0.039531
0.648857 0.156250 0.039531
0.744609 0.156250 0.039531
0.834150 0.156250 0.039531
0.914375 0.156250 0.039531
0.982178 0.156250 0.039531
1.000000 0.156250 0.039531
1.000000 0.156250 0.039531
1.000000 0.156250 0.039531
0.020000 0.231934 0.039531
0.031904 0.231934 0.039531
0.065547 0.231934 0.039531
0.117822 0.231934 0.039531
0.185625 0.231934 0.039531
0.265850 0.231934 0.039531
0.355391 0.231934 0.039531
0.451143 0.231934 0.039531
0.550000 0.231934 0.039531
0.648857 0.231934 0.039531
0.744609 0.231934 0.039531
0.834150 0.231934 0.039531
0.914375 0.231934 0.039531
0.982178 0.231934 0.039531
1.000000 0.231934 0.039531
1.000000 0.231934 0.039531
1.000000 0.231934 0.039531
0.020000 0.316406 0.039531
0.031904 0.316406 0.039531
0.065547 0.316406 0.039531
0.117822 0.316406 0.039531
0.185625 0.316406 0.039531
0.265850 0.316406 0.039531
0.355391 0.316406 0.039531
0.451143 0.316406 0.039531
0.550000 0.316406 0.039531
0.648857 0.316406 0.039531
0.744609 0.316406 0.039531
0.834150 0.316406 0.039531
0.914375 0.316406 0.039531
0.982178 0.316406 0.039531
1.000000 0.316406 0.039531
1.000000 0.316406 0.039531
1.000000 0.316406 0.039531
0.020000 0.406738 0.039531
0.031904 0.406738 0.039531
0.065547 0.406738 0.039531
0.117822 0.406738 0.039531
0.185625 0.406738 0.039531
0.265850 0.406738 0.039531
0.355391 0.406738 0.039531
0.451143 0.406738 0.039531
0.550000 0.406738 0.039531
0.648857 0.406738 0.039531
0.744609 0.406738 0.039531
0.834150 0.406738 0.039531
0.914375 0.406738 0.039531
0.982178 0.406738 0.039531
1.000000 0.406738 0.039531
1.000000 0.406738 0.039531
1.000000 0.406738 0.039531
0.020000 0.500000 0.039531
0.031904 0.500000 0.039531
0.065547 0.500000 0.039531
0.117822 0.500000 0.039531
0.185625 0.500000 0.039531
0.265850 0.500000 0.039531
0.355391 0.500000 0.039531
0.451143 0.500000 0.039531
0.550000 0.500000 0.039531
0.648857 0.500000 0.039531
0.744609 0.500000 0.039531
0.834150 0.500000 0.039531
0.914375 0.500000 0.039531
0.982178 0.500000 0.039531
1.000000 0.500000 0.039531
1.000000 0.500000 0.039531
1.000000 0.500000 0.039531
0.020000 0.593262 0.039531
0.031904 0.593262 0.039531
0.065547 0.593262 0.039531
0.117822 0.593262 0.039531
0.185625 0.593262 0.039531
0.265850 0.593262 0.039531
0.355391 0.593262 0.039531
0.451143 0.593262 0.039531
0.550000 0.593262 0.039531
0.648857 0.593262 0.039531
0.744609 0.593262 0.039531
0.834150 0.593262 0.039531
0.914375 0.593262 0.039531
0.982178 0.593262 0.039531
1.000000 0.593262 0.039531
1.000000 0.593262 0.039531
1.000000 0.593262 0.039531
0.020000 0.683594 0.039531
0.031904 0.683594 0.039531
0.065547 0.683594 0.039531
0.117822 0.683594 0.039531
0.185625 0.683594 0.039531
0.265850 0.683594 0.039531
0.355391 0.683594 0.039531
0.451143 0.683594 0.039531
0.550000 0.683594 0.039531
0.648857 0.683594 0.039531
0.744609 0.683594 0.039531
0.834150 0.683594 0.039531
0.914375 0.683594 0.039531
0.982178 0.683594 0.039531
1.000000 0.683594 0.039531
1.000000 0.683594 0.039531
1.000000 0.683594 0.039531
0.020000 0.768066 0.039531
0.031904 0.768066 0.039531
0.065547 0.768066 0.039531
0.117822 0.768066 0.039531
0.185625 0.768066 0.039531
0.265850 0.768066 0.039531
0.355391 0.768066 0.039531
0.451143 0.768066 0.039531
0.550000 0.768066 0.039531
0.648857 0.768066 0.039531
0.744609 0.768066 0.039531
0.834150 0.768066 0.039531
0.914375 0.768066 0.039531
0.982178 0.768066 0.039531
1.000000 0.768066 0.039531
1.000000 0.768066 0.039531
1.000000 0.768066 0.039531
0.020000 0.843750 0.039531
0.031904 0.843750 0.039531
0.065547 0.843750 0.039531
0.117822 0.843750 0.039531
0.185625 0.843750 0.039531
0.265850 0.843750 0.039531
0.355391 0.843750 0.039531
0.451143 0.843750 0.039531
0.550000 0.843750 0.039531
0.648857 0.843750 0.039531
0.744609 0.843750 0.039531
0.834150 0.843750 0.039531
0.914375 0.843750 0.039531
0.982178 0.843750 0.039531
1.000000 0.843750 0.039531
1.000000 0.843750 0.039531
1.000000 0.843750 0.039531
0.020000 0.907715 0.039531
0.031904 0.907715 0.039531
0.065547 0.907715 0.039531
0.117822 0.907715 0.039531
0.185625 0.907715 0.039531
0.265850 0.907715 0.039531
0.355391 0.907715 0.039531
0.451143 0.907715 0.039531
0.550000 0.907715 0.039531
0.648857 0.907715 0.039531
0.744609 0.907715 0.039531
0.834150 0.907715 0.039531
0.914375 0.907715 0.039531
0.982178 0.907715 0.039531
1.000000 0.907715 0.039531
1.000000 0.907715 0.039531
1.000000 0.907715 0.039531
0.020000 0.957031 0.039531
0.031904 0.957031 0.039531
0.065547 0.957031 0.039531
0.117822 0.957031 0.039531
0.185625 0.957031 0.039531
0.265850 0.957031 0.039531
0.355391 0.957031 0.039531
0.451143 0.957031 0.039531
0.550000 0.957031 0.039531
0.648857 0.957031 0.039531
0.744609 0.957031 0.039531
0.834150 0.957031 0.039531
0.914375 0.957031 0.039531
0.982178 0.957031 0.039531
1.000000 0.957031 0.039531
1.000000 0.957031 0.039531
1.000000 0.957031 0.039531
0.020000 0.988770 0.039531
0.031904 0.988770 0.039531
0.065547 0.988770 0.039531
0.117822 0.988770 0.039531
0.185625 0.988770 0.039531
0.265850 0.988770 0.039531
0.355391 0.988770 0.039531
0.451143 0.988770 0.039531
0.550000 0.988770 0.039531
0.648857 0.988770 0.039531
0.744609 0.988770 0.039531
0.834150 0.988770 0.039531
0.914375 0.988770 0.039531
0.982178 0.988770 0.039531
1.000000 0.988770 0.039531
1.000000 0.988770 0.039531
1.000000 0.988770 0.039531
0.020000 1.000000 0.039531
0.031904 1.000000 0.039531
0.065547 1.000000 0.039531
0.117822 1.000000 0.039531
0.185625 1.000000 0.039531
0.265850 1.000000 0.039531
0.355391 1.000000 0.039531
0.451143 1.000000 0.039531
0.550000 1.000000 0.039531
0.648857 1.000000 0.039531
0.744609 1.000000 0.039531
0.834150 1.000000 0.039531
0.914375 1.000000 0.039531
0.982178 1.000000 0.039531
1.000000 1.000000 0.039531
1.000000 1.000000 0.039531
1.000000 1.000000 0.039531
0.020000 0.000000 0.084902
0.031904 0.000000 0.084902
0.065547 0.000000 0.084902
0.117822 0.000000 0.084902
0.185625 0.000000 0.084902
0.265850 0.000000 0.084902
0.355391 0.000000 0.084902
0.451143 0.000000 0.084902
0.550000 0.000000 0.084902
0.648857 0.000000 0.084902
0.744609 0.000000 0.084902
0.834150 0.000000 0.084902
0.914375 0.000000 0.084902
0.982178 0.000000 0.084902
1.000000 0.000000 0.084902
1.000000 0.000000 0.084902
1.000000 0.000000 0.084902
0.020000 0.011230 0.084902
0.031904 0.011230 0.084902
0.065547 0.011230 0.084902
