lut-to-lightroom-camera-profile/testdata/warm.cube
TITLE "Warm Test"
LUT_3D_SIZE 5
0.020000 0.000000 0.000000
0.185625 0.000000 0.000000
0.550000 0.000000 0.000000
0.914375 0.000000 0.000000
1.000000 0.000000 0.000000
0.020000 0.156250 0.000000
0.185625 0.156250 0.000000
0.550000 0.156250 0.000000
0.914375 0.156250 0.000000
1.000000 0.156250 0.000000
0.020000 0.500000 0.000000
0.185625 0.500000 0.000000
0.550000 0.500000 0.000000
0.914375 0.500000 0.000000
1.000000 0.500000 0.000000
0.020000 0.843750 0.000000
0.185625 0.843750 0.000000
0.550000 0.843750 0.000000
0.914375 0.843750 0.000000
1.000000 0.843750 0.000000
0.020000 1.000000 0.000000
0.185625 1.000000 0.000000
0.550000 1.000000 0.000000
0.914375 1.000000 0.000000
1.000000 1.000000 0.000000
0.020000 0.000000 0.143750
0.185625 0.000000 0.143750
0.550000 0.000000 0.143750
0.914375 0.000000 0.143750
1.000000 0.000000 0.143750
0.020000 0.156250 0.143750
0.185625 0.156250 0.143750
0.550000 0.156250 0.143750
0.914375 0.156250 0.143750
1.000000 0.156250 0.143750
0.020000 0.500000 0.143750
0.185625 0.500000 0.143750
0.550000 0.500000 0.143750
0.914375 0.500000 0.143750
1.000000 0.500000 0.143750
0.020000 0.843750 0.143750
0.185625 0.843750 0.143750
0.550000 0.843750 0.143750
0.914375 0.843750 0.143750
1.000000 0.843750 0.143750
0.020000 1.000000 0.143750
0.185625 1.000000 0.143750
0.550000 1.000000 0.143750
0.914375 1.000000 0.143750
1.000000 1.000000 0.143750
0.020000 0.000000 0.460000
0.185625 0.000000 0.460000
0.550000 0.000000 0.460000
0.914375 0.000000 0.460000
1.000000 0.000000 0.460000
0.020000 0.156250 0.460000
0.185625 0.156250 0.460000
0.550000 0.156250 0.460000
0.914375 0.156250 0.460000
1.000000 0.156250 0.460000
0.020000 0.500000 0.460000
0.185625 0.500000 0.460000
0.550000 0.500000 0.460000
0.914375 0.500000 0.460000
1.000000 0.500000 0.460000
0.020000 0.843750 0.460000
0.185625 0.843750 0.460000
0.550000 0.843750 0.460000
0.914375 0.843750 0.460000
1.000000 0.843750 0.460000
0.020000 1.000000 0.460000
0.185625 1.000000 0.460000
0.550000 1.000000 0.460000
0.914375 1.000000 0.460000
1.000000 1.000000 0.460000
0.020000 0.000000 0.776250
0.185625 0.000000 0.776250
0.550000 0.000000 0.776250
0.914375 0.000000 0.776250
1.000000 0.000000 0.776250
0.020000 0.156250 0.776250
0.185625 0.156250 0.776250
0.550000 0.156250 0.776250
0.914375 0.156250 0.776250
1.000000 0.156250 0.776250
0.020000 0.500000 0.776250
0.185625 0.500000 0.776250
0.550000 0.500000 0.776250
0.914375 0.500000 0.776250
1.000000 0.500000 0.776250
0.020000 0.843750 0.776250
0.185625 0.843750 0.776250
0.550000 0.843750 0.776250
0.914375 0.843750 0.776250
1.000000 0.843750 0.776250
0.020000 1.000000 0.776250
0.185625 1.000000 0.776250
0.550000 1.000000 0.776250
0.914375 1.000000 0.776250
1.000000 1.000000 0.776250
0.020000 0.000000 0.920000
0.185625 0.000000 0.920000
0.550000 0.000000 0.920000
0.914375 0.000000 0.920000
1.000000 0.000000 0.920000
0.020000 0.156250 0.920000
0.185625 0.156250 0.920000
0.550000 0.156250 0.920000
0.914375 0.156250 0.920000
1.000000 0.156250 0.920000
0.020000 0.500000 0.920000
0.185625 0.500000 0.920000
0.550000 0.500000 0.920000
0.914375 0.500000 0.920000
1.000000 0.500000 0.920000
0.020000 0.843750 0.920000
0.185625 0.843750 0.920000
0.550000 0.843750 0.920000
0.914375 0.843750 0.920000
1.000000 0.843750 0.920000
0.020000 1.000000 0.920000
0.185625 1.000000 0.920000
0.550000 1.000000 0.920000
0.914375 1.000000 0.920000
1.000000 1.000000 0.920000
