lut-to-lightroom-camera-profile/testdata/warm.cube
TITLE "Warm Test"
LUT_3D_SIZE 9
0.020000 0.000000 0.000000
0.065547 0.000000 0.000000
0.185625 0.000000 0.000000
0.355391 0.000000 0.000000
0.550000 0.000000 0.000000
0.744609 0.000000 0.000000
0.914375 0.000000 0.000000
1.000000 0.000000 0.000000
1.000000 0.000000 0.000000
0.020000 0.042969 0.000000
0.065547 0.042969 0.000000
0.185625 0.042969 0.000000
0.355391 0.042969 0.000000
0.550000 0.042969 0.000000
0.744609 0.042969 0.000000
0.914375 0.042969 0.000000
1.000000 0.042969 0.000000
1.000000 0.042969 0.000000
0.020000 0.156250 0.000000
0.065547 0.156250 0.000000
0.185625 0.156250 0.000000
0.355391 0.156250 0.000000
0.550000 0.156250 0.000000
0.744609 0.156250 0.000000
0.914375 0.156250 0.000000
1.000000 0.156250 0.000000
1.000000 0.156250 0.000000
0.020000 0.316406 0.000000
0.065547 0.316406 0.000000
0.185625 0.316406 0.000000
0.355391 0.316406 0.000000
0.550000 0.316406 0.000000
0.744609 0.316406 0.000000
0.914375 0.316406 0.000000
1.000000 0.316406 0.000000
1.000000 0.316406 0.000000
0.020000 0.500000 0.000000
0.065547 0.500000 0.000000
0.185625 0.500000 0.000000
0.355391 0.500000 0.000000
0.550000 0.500000 0.000000
0.744609 0.500000 0.000000
0.914375 0.500000 0.000000
1.000000 0.500000 0.000000
1.000000 0.500000 0.000000
0.020000 0.683594 0.000000
0.065547 0.683594 0.000000
0.185625 0.683594 0.000000
0.355391 0.683594 0.000000
0.550000 0.683594 0.000000
0.744609 0.683594 0.000000
0.914375 0.683594 0.000000
1.000000 0.683594 0.000000
1.000000 0.683594 0.000000
0.020000 0.843750 0.000000
0.065547 0.843750 0.000000
0.185625 0.843750 0.000000
0.355391 0.843750 0.000000
0.550000 0.843750 0.000000
0.744609 0.843750 0.000000
0.914375 0.843750 0.000000
1.000000 0.843750 0.000000
1.000000 0.843750 0.000000
0.020000 0.957031 0.000000
0.065547 0.957031 0.000000
0.185625 0.957031 0.000000
0.355391 0.957031 0.000000
0.550000 0.957031 0.000000
0.744609 0.957031 0.000000
0.914375 0.957031 0.000000
1.000000 0.957031 0.000000
1.000000 0.957031 0.000000
0.020000 1.000000 0.000000
0.065547 1.000000 0.000000
0.185625 1.000000 0.000000
0.355391 1.000000 0.000000
0.550000 1.000000 0.000000
0.744609 1.000000 0.000000
0.914375 1.000000 0.000000
1.000000 1.000000 0.000000
1.000000 1.000000 0.000000
0.020000 0.000000 0.039531
0.065547 0.000000 0.039531
0.185625 0.000000 0.039531
0.355391 0.000000 0.039531
0.550000 0.000000 0.039531
0.744609 0.000000 0.039531
0.914375 0.000000 0.039531
1.000000 0.000000 0.039531
1.000000 0.000000 0.039531
0.020000 0.042969 0.039531
0.065547 0.042969 0.039531
0.185625 0.042969 0.039531
0.355391 0.042969 0.039531
0.550000 0.042969 0.039531
0.744609 0.042969 0.039531
0.914375 0.042969 0.039531
1.000000 0.042969 0.039531
1.000000 0.042969 0.039531
0.020000 0.156250 0.039531
0.065547 0.156250 0.039531
0.185625 0.156250 0.039531
0.355391 0.156250 0.039531
0.550000 0.156250 0.039531
0.744609 0.156250 0.039531
0.914375 0.156250 0.039531
1.000000 0.156250 0.039531
1.000000 0.156250 0.039531
0.020000 0.316406 0.039531
0.065547 0.316406 0.039531
0.185625 0.316406 0.039531
0.355391 0.316406 0.039531
0.550000 0.316406 0.039531
0.744609 0.316406 0.039531
0.914375 0.316406 0.039531
1.000000 0.316406 0.039531
1.000000 0.316406 0.039531
0.020000 0.500000 0.039531
0.065547 0.500000 0.039531
0.185625 0.500000 0.039531
0.355391 0.500000 0.039531
0.550000 0.500000 0.039531
0.744609 0.500000 0.039531
0.914375 0.500000 0.039531
1.000000 0.500000 0.039531
1.000000 0.500000 0.039531
0.020000 0.683594 0.039531
0.065547 0.683594 0.039531
0.185625 0.683594 0.039531
0.355391 0.683594 0.039531
0.550000 0.683594 0.039531
0.744609 0.683594 0.039531
0.914375 0.683594 0.039531
1.000000 0.683594 0.039531
1.000000 0.683594 0.039531
0.020000 0.843750 0.039531
0.065547 0.843750 0.039531
0.185625 0.843750 0.039531
0.355391 0.843750 0.039531
0.550000 0.843750 0.039531
0.744609 0.843750 0.039531
0.914375 0.843750 0.039531
1.000000 0.843750 0.039531
1.000000 0.843750 0.039531
0.020000 0.957031 0.039531
0.065547 0.957031 0.039531
0.185625 0.957031 0.039531
0.355391 0.957031 0.039531
0.550000 0.957031 0.039531
0.744609 0.957031 0.039531
0.914375 0.957031 0.039531
1.000000 0.957031 0.039531
1.000000 0.957031 0.039531
0.020000 1.000000 0.039531
0.065547 1.000000 0.039531
0.185625 1.000000 0.039531
0.355391 1.000000 0.039531
0.550000 1.000000 0.039531
0.744609 1.000000 0.039531
0.914375 1.000000 0.039531
1.000000 1.000000 0.039531
1.000000 1.000000 0.039531
0.020000 0.000000 0.143750
0.065547 0.000000 0.143750
0.185625 0.000000 0.143750
0.355391 0.000000 0.143750
0.550000 0.000000 0.143750
0.744609 0.000000 0.143750
0.914375 0.000000 0.143750
1.000000 0.000000 0.143750
1.000000 0.000000 0.143750
0.020000 0.042969 0.143750
0.065547 0.042969 0.143750
0.185625 0.042969 0.143750
0.355391 0.042969 0.143750
0.550000 0.042969 0.143750
0.744609 0.042969 0.143750
0.914375 0.042969 0.143750
1.000000 0.042969 0.143750
1.000000 0.042969 0.143750
0.020000 0.156250 0.143750
0.065547 0.156250 0.143750
0.185625 0.156250 0.143750
0.355391 0.156250 0.143750
0.550000 0.156250 0.143750
0.744609 0.156250 0.143750
0.914375 0.156250 0.143750
1.000000 0.156250 0.143750
1.000000 0.156250 0.143750
0.020000 0.316406 0.143750
0.065547 0.316406 0.143750
0.185625 0.316406 0.143750
0.355391 0.316406 0.143750
0.550000 0.316406 0.143750
0.744609 0.316406 0.143750
0.914375 0.316406 0.143750
1.000000 0.316406 0.143750
1.000000 0.316406 0.143750
0.020000 0.500000 0.143750
0.065547 0.500000 0.143750
0.185625 0.500000 0.143750
0.355391 0.500000 0.143750
0.550000 0.500000 0.143750
0.744609 0.500000 0.143750
0.914375 0.500000 0.143750
1.000000 0.500000 0.143750
1.000000 0.500000 0.143750
0.020000 0.683594 0.143750
0.065547 0.683594 0.143750
0.185625 0.683594 0.143750
0.355391 0.683594 0.143750
0.550000 0.683594 0.143750
0.744609 0.683594 0.143750
0.914375 0.683594 0.143750
1.000000 0.683594 0.143750
1.000000 0.683594 0.143750
0.020000 0.843750 0.143750
0.065547 0.843750 0.143750
0.185625 0.843750 0.143750
0.355391 0.843750 0.143750
0.550000 0.843750 0.143750
0.744609 0.843750 0.143750
0.914375 0.843750 0.143750
1.000000 0.843750 0.143750
1.000000 0.843750 0.143750
0.020000 0.957031 0.143750
0.065547 0.957031 0.143750
0.185625 0.957031 0.143750
0.355391 0.957031 0.143750
0.550000 0.957031 0.143750
0.744609 0.957031 0.143750
0.914375 0.957031 0.143750
1.000000 0.957031 0.143750
1.000000 0.957031 0.143750
0.020000 1.000000 0.143750
0.065547 1.000000 0.143750
0.185625 1.000000 0.143750
0.355391 1.000000 0.143750
0.550000 1.000000 0.143750
0.744609 1.000000 0.143750
0.914375 1.000000 0.143750
1.000000 1.000000 0.143750
1.000000 1.000000 0.143750
0.020000 0.000000 0.291094
0.065547 0.000000 0.291094
0.185625 0.000000 0.291094
0.355391 0.000000 0.291094
0.550000 0.000000 0.291094
0.744609 0.000000 0.291094
0.914375 0.000000 0.291094
1.000000 0.000000 0.291094
1.000000 0.000000 0.291094
0.020000 0.042969 0.291094
0.065547 0.042969 0.291094
0.185625 0.042969 0.291094
0.355391 0.042969 0.291094
0.550000 0.042969 0.291094
0.744609 0.042969 0.291094
0.914375 0.042969 0.291094
1.000000 0.042969 0.291094
1.000000 0.042969 0.291094
0.020000 0.156250 0.291094
0.065547 0.156250 0.291094
0.185625 0.156250 0.291094
0.355391 0.156250 0.291094
0.550000 0.156250 0.291094
0.744609 0.156250 0.291094
0.914375 0.156250 0.291094
1.000000 0.156250 0.291094
1.000000 0.156250 0.291094
0.020000 0.316406 0.291094
0.065547 0.316406 0.291094
0.185625 0.316406 0.291094
0.355391 0.316406 0.291094
0.550000 0.316406 0.291094
0.744609 0.316406 0.291094
0.914375 0.316406 0.291094
1.000000 0.316406 0.291094
1.000000 0.316406 0.291094
0.020000 0.500000 0.291094
0.065547 0.500000 0.291094
0.185625 0.500000 0.291094
0.355391 0.500000 0.291094
0.550000 0.500000 0.291094
0.744609 0.500000 0.291094
0.914375 0.500000 0.291094
1.000000 0.500000 0.291094
1.000000 0.500000 0.291094
0.020000 0.683594 0.291094
0.065547 0.683594 0.291094
0.185625 0.683594 0.291094
0.355391 0.683594 0.291094
0.550000 0.683594 0.291094
0.744609 0.683594 0.291094
0.914375 0.683594 0.291094
1.000000 0.683594 0.291094
1.000000 0.683594 0.291094
0.020000 0.843750 0.291094
0.065547 0.843750 0.291094
0.185625 0.843750 0.291094
0.355391 0.843750 0.291094
0.550000 0.843750 0.291094
0.744609 0.843750 0.291094
0.914375 0.843750 0.291094
1.000000 0.843750 0.291094
1.000000 0.843750 0.291094
0.020000 0.957031 0.291094
0.065547 0.957031 0.291094
0.185625 0.957031 0.291094
0.355391 0.957031 0.291094
0.550000 0.957031 0.291094
0.744609 0.957031 0.291094
0.914375 0.957031 0.291094
1.000000 0.957031 0.291094
1.000000 0.957031 0.291094
0.020000 1.000000 0.291094
0.065547 1.000000 0.291094
0.185625 1.000000 0.291094
0.355391 1.000000 0.291094
0.550000 1.000000 0.291094
0.744609 1.000000 0.291094
0.914375 1.000000 0.291094
1.000000 1.000000 0.291094
1.000000 1.000000 0.291094
0.020000 0.000000 0.460000
0.065547 0.000000 0.460000
0.185625 0.000000 0.460000
0.355391 0.000000 0.460000
0.550000 0.000000 0.460000
0.744609 0.000000 0.460000
0.914375 0.000000 0.460000
1.000000 0.000000 0.460000
1.000000 0.000000 0.460000
0.020000 0.042969 0.460000
0.065547 0.042969 0.460000
0.185625 0.042969 0.460000
0.355391 0.042969 0.460000
0.550000 0.042969 0.460000
0.744609 0.042969 0.460000
0.914375 0.042969 0.460000
1.000000 0.042969 0.460000
1.000000 0.042969 0.460000
0.020000 0.156250 0.460000
0.065547 0.156250 0.460000
0.185625 0.156250 0.460000
0.355391 0.156250 0.460000
0.550000 0.156250 0.460000
0.744609 0.156250 0.460000
0.914375 0.156250 0.460000
1.000000 0.156250 0.460000
1.000000 0.156250 0.460000
0.020000 0.316406 0.460000
0.065547 0.316406 0.460000
0.185625 0.316406 0.460000
0.355391 0.316406 0.460000
0.550000 0.316406 0.460000
0.744609 0.316406 0.460000
0.914375 0.316406 0.460000
1.000000 0.316406 0.460000
1.000000 0.316406 0.460000
0.020000 0.500000 0.460000
0.065547 0.500000 0.460000
0.185625 0.500000 0.460000
0.355391 0.500000 0.460000
0.550000 0.500000 0.460000
0.744609 0.500000 0.460000
0.914375 0.500000 0.460000
1.000000 0.500000 0.460000
1.000000 0.500000 0.460000
0.020000 0.683594 0.460000
0.065547 0.683594 0.460000
0.185625 0.683594 0.460000
0.355391 0.683594 0.460000
0.550000 0.683594 0.460000
0.744609 0.683594 0.460000
0.914375 0.683594 0.460000
1.000000 0.683594 0.460000
1.000000 0.683594 0.460000
0.020000 0.843750 0.460000
0.065547 0.843750 0.460000
0.185625 0.843750 0.460000
0.355391 0.843750 0.460000
0.550000 0.843750 0.460000
0.744609 0.843750 0.460000
0.914375 0.843750 0.460000
1.000000 0.843750 0.460000
1.000000 0.843750 0.460000
0.020000 0.957031 0.460000
0.065547 0.957031 0.460000
0.185625 0.957031 0.460000
0.355391 0.957031 0.460000
0.550000 0.957031 0.460000
0.744609 0.957031 0.460000
0.914375 0.957031 0.460000
1.000000 0.957031 0.460000
1.000000 0.957031 0.460000
0.020000 1.000000 0.460000
0.065547 1.000000 0.460000
0.185625 1.000000 0.460000
0.355391 1.000000 0.460000
0.550000 1.000000 0.460000
0.744609 1.000000 0.460000
0.914375 1.000000 0.460000
1.000000 1.000000 0.460000
1.000000 1.000000 0.460000
0.020000 0.000000 0.628906
0.065547 0.000000 0.628906
0.185625 0.000000 0.628906
0.355391 0.000000 0.628906
0.550000 0.000000 0.628906
0.744609 0.000000 0.628906
0.914375 0.000000 0.628906
1.000000 0.000000 0.628906
1.000000 0.000000 0.628906
0.020000 0.042969 0.628906
0.065547 0.042969 0.628906
0.185625 0.042969 0.628906
0.355391 0.042969 0.628906
0.550000 0.042969 0.628906
0.744609 0.042969 0.628906
0.914375 0.042969 0.628906
1.000000 0.042969 0.628906
1.000000 0.042969 0.628906
0.020000 0.156250 0.628906
0.065547 0.156250 0.628906
0.185625 0.156250 0.628906
0.355391 0.156250 0.628906
0.550000 0.156250 0.628906
0.744609 0.156250 0.628906
0.914375 0.156250 0.628906
1.000000 0.156250 0.628906
1.000000 0.156250 0.628906
0.020000 0.316406 0.628906
0.065547 0.316406 0.628906
0.185625 0.316406 0.628906
0.355391 0.316406 0.628906
0.550000 0.316406 0.628906
0.744609 0.316406 0.628906
0.914375 0.316406 0.628906
1.000000 0.316406 0.628906
1.000000 0.316406 0.628906
0.020000 0.500000 0.628906
0.065547 0.500000 0.628906
0.185625 0.500000 0.628906
0.355391 0.500000 0.628906
0.550000 0.500000 0.628906
0.744609 0.500000 0.628906
0.914375 0.500000 0.628906
1.000000 0.500000 0.628906
1.000000 0.500000 0.628906
0.020000 0.683594 0.628906
0.065547 0.683594 0.628906
0.185625 0.683594 0.628906
0.355391 0.683594 0.628906
0.550000 0.683594 0.628906
0.744609 0.683594 0.628906
0.914375 0.683594 0.628906
1.000000 0.683594 0.628906
1.000000 0.683594 0.628906
0.020000 0.843750 0.628906
0.065547 0.843750 0.628906
0.185625 0.843750 0.628906
0.355391 0.843750 0.628906
0.550000 0.843750 0.628906
0.744609 0.843750 0.628906
0.914375 0.843750 0.628906
1.000000 0.843750 0.628906
1.000000 0.843750 0.628906
0.020000 0.957031 0.628906
0.065547 0.957031 0.628906
0.185625 0.957031 0.628906
0.355391 0.957031 0.628906
0.550000 0.957031 0.628906
0.744609 0.957031 0.628906
0.914375 0.957031 0.628906
1.000000 0.957031 0.628906
1.000000 0.957031 0.628906
0.020000 1.000000 0.628906
0.065547 1.000000 0.628906
0.185625 1.000000 0.628906
0.355391 1.000000 0.628906
0.550000 1.000000 0.628906
0.744609 1.000000 0.628906
0.914375 1.000000 0.628906
1.000000 1.000000 0.628906
1.000000 1.000000 0.628906
0.020000 0.000000 0.776250
0.065547 0.000000 0.776250
0.185625 0.000000 0.776250
0.355391 0.000000 0.776250
0.550000 0.000000 0.776250
0.744609 0.000000 0.776250
0.914375 0.000000 0.776250
1.000000 0.000000 0.776250
1.000000 0.000000 0.776250
0.020000 0.042969 0.776250
0.065547 0.042969 0.776250
0.185625 0.042969 0.776250
0.355391 0.042969 0.776250
0.550000 0.042969 0.776250
0.744609 0.042969 0.776250
0.914375 0.042969 0.776250
1.000000 0.042969 0.776250
1.000000 0.042969 0.776250
0.020000 0.156250 0.776250
0.065547 0.156250 0.776250
0.185625 0.156250 0.776250
0.355391 0.156250 0.776250
0.550000 0.156250 0.776250
0.744609 0.156250 0.776250
0.914375 0.156250 0.776250
1.000000 0.156250 0.776250
1.000000 0.156250 0.776250
0.020000 0.316406 0.776250
0.065547 0.316406 0.776250
0.185625 0.316406 0.776250
0.355391 0.316406 0.776250
0.550000 0.316406 0.776250
0.744609 0.316406 0.776250
0.914375 0.316406 0.776250
1.000000 0.316406 0.776250
1.000000 0.316406 0.776250
0.020000 0.500000 0.776250
0.065547 0.500000 0.776250
0.185625 0.500000 0.776250
0.355391 0.500000 0.776250
0.550000 0.500000 0.776250
0.744609 0.500000 0.776250
0.914375 0.500000 0.776250
1.000000 0.500000 0.776250
1.000000 0.500000 0.776250
0.020000 0.683594 0.776250
0.065547 0.683594 0.776250
0.185625 0.683594 0.776250
0.355391 0.683594 0.776250
0.550000 0.683594 0.776250
0.744609 0.683594 0.776250
0.914375 0.683594 0.776250
1.000000 0.683594 0.776250
1.000000 0.683594 0.776250
0.020000 0.843750 0.776250
0.065547 0.843750 0.776250
0.185625 0.843750 0.776250
0.355391 0.843750 0.776250
0.550000 0.843750 0.776250
0.744609 0.843750 0.776250
0.914375 0.843750 0.776250
1.000000 0.843750 0.776250
1.000000 0.843750 0.776250
0.020000 0.957031 0.776250
0.065547 0.957031 0.776250
0.185625 0.957031 0.776250
0.355391 0.957031 0.776250
0.550000 0.957031 0.776250
0.744609 0.957031 0.776250
0.914375 0.957031 0.776250
1.000000 0.957031 0.776250
1.000000 0.957031 0.776250
0.020000 1.000000 0.776250
0.065547 1.000000 0.776250
0.185625 1.000000 0.776250
0.355391 1.000000 0.776250
0.550000 1.000000 0.776250
0.744609 1.000000 0.776250
0.914375 1.000000 0.776250
1.000000 1.000000 0.776250
1.000000 1.000000 0.776250
0.020000 0.000000 0.880469
0.065547 0.000000 0.880469
0.185625 0.000000 0.880469
0.355391 0.000000 0.880469
0.550000 0.000000 0.880469
0.744609 0.000000 0.880469
0.914375 0.000000 0.880469
1.000000 0.000000 0.880469
1.000000 0.000000 0.880469
0.020000 0.042969 0.880469
0.065547 0.042969 0.880469
0.185625 0.042969 0.880469
0.355391 0.042969 0.880469
0.550000 0.042969 0.880469
0.744609 0.042969 0.880469
0.914375 0.042969 0.880469
1.000000 0.042969 0.880469
1.000000 0.042969 0.880469
0.020000 0.156250 0.880469
0.065547 0.156250 0.880469
0.185625 0.156250 0.880469
0.355391 0.156250 0.880469
0.550000 0.156250 0.880469
0.744609 0.156250 0.880469
0.914375 0.156250 0.880469
1.000000 0.156250 0.880469
1.000000 0.156250 0.880469
0.020000 0.316406 0.880469
0.065547 0.316406 0.880469
0.185625 0.316406 0.880469
0.355391 0.316406 0.880469
0.550000 0.316406 0.880469
0.744609 0.316406 0.880469
0.914375 0.316406 0.880469
1.000000 0.316406 0.880469
1.000000 0.316406 0.880469
0.020000 0.500000 0.880469
0.065547 0.500000 0.880469
0.185625 0.500000 0.880469
0.355391 0.500000 0.880469
0.550000 0.500000 0.880469
0.744609 0.500000 0.880469
0.914375 0.500000 0.880469
1.000000 0.500000 0.880469
1.000000 0.500000 0.880469
0.020000 0.683594 0.880469
0.065547 0.683594 0.880469
0.185625 0.683594 0.880469
0.355391 0.683594 0.880469
0.550000 0.683594 0.880469
0.744609 0.683594 0.880469
0.914375 0.683594 0.880469
1.000000 0.683594 0.880469
1.000000 0.683594 0.880469
0.020000 0.843750 0.880469
0.065547 0.843750 0.880469
0.185625 0.843750 0.880469
0.355391 0.843750 0.880469
0.550000 0.843750 0.880469
0.744609 0.843750 0.880469
0.914375 0.843750 0.880469
1.000000 0.843750 0.880469
1.000000 0.843750 0.880469
0.020000 0.957031 0.880469
0.065547 0.957031 0.880469
0.185625 0.957031 0.880469
0.355391 0.957031 0.880469
0.550000 0.957031 0.880469
0.744609 0.957031 0.880469
0.914375 0.957031 0.880469
1.000000 0.957031 0.880469
1.000000 0.957031 0.880469
0.020000 1.000000 0.880469
0.065547 1.000000 0.880469
0.185625 1.000000 0.880469
0.355391 1.000000 0.880469
0.550000 1.000000 0.880469
0.744609 1.000000 0.880469
0.914375 1.000000 0.880469
1.000000 1.000000 0.880469
1.000000 1.000000 0.880469
0.020000 0.000000 0.920000
0.065547 0.000000 0.920000
0.185625 0.000000 0.920000
0.355391 0.000000 0.920000
0.550000 0.000000 0.920000
0.744609 0.000000 0.920000
0.914375 0.000000 0.920000
1.000000 0.000000 0.920000
1.000000 0.000000 0.920000
0.020000 0.042969 0.920000
0.065547 0.042969 0.920000
0.185625 0.042969 0.920000
0.355391 0.042969 0.920000
0.550000 0.042969 0.920000
0.744609 0.042969 0.920000
0.914375 0.042969 0.920000
1.000000 0.042969 0.920000
1.000000 0.042969 0.920000
0.020000 0.156250 0.920000
0.065547 0.156250 0.920000
0.185625 0.156250 0.920000
0.355391 0.156250 0.920000
0.550000 0.156250 0.920000
0.744609 0.156250 0.920000
0.914375 0.156250 0.920000
1.000000 0.156250 0.920000
1.000000 0.156250 0.920000
0.020000 0.316406 0.920000
0.065547 0.316406 0.920000
0.185625 0.316406 0.920000
0.355391 0.316406 0.920000
0.550000 0.316406 0.920000
0.744609 0.316406 0.920000
0.914375 0.316406 0.920000
1.000000 0.316406 0.920000
1.000000 0.316406 0.920000
0.020000 0.500000 0.920000
0.065547 0.500000 0.920000
0.185625 0.500000 0.920000
0.355391 0.500000 0.920000
0.550000 0.500000 0.920000
0.744609 0.500000 0.920000
0.914375 0.500000 0.920000
1.000000 0.500000 0.920000
1.000000 0.500000 0.920000
0.020000 0.683594 0.920000
0.065547 0.683594 0.920000
0.185625 0.683594 0.920000
0.355391 0.683594 0.920000
0.550000 0.683594 0.920000
0.744609 0.683594 0.920000
0.914375 0.683594 0.920000
1.000000 0.683594 0.920000
1.000000 0.683594 0.920000
0.020000 0.843750 0.920000
0.065547 0.843750 0.920000
0.185625 0.843750 0.920000
0.355391 0.843750 0.920000
0.550000 0.843750 0.920000
0.744609 0.843750 0.920000
0.914375 0.843750 0.920000
1.000000 0.843750 0.920000
1.000000 0.843750 0.920000
0.020000 0.957031 0.920000
0.065547 0.957031 0.920000
0.185625 0.957031 0.920000
0.355391 0.957031 0.920000
0.550000 0.957031 0.920000
0.744609 0.957031 0.920000
0.914375 0.957031 0.920000
1.000000 0.957031 0.920000
1.000000 0.957031 0.920000
0.020000 1.000000 0.920000
0.065547 1.000000 0.920000
0.185625 1.000000 0.920000
0.355391 1.000000 0.920000
0.550000 1.000000 0.920000
0.744609 1.000000 0.920000
0.914375 1.000000 0.920000
1.000000 1.000000 0.920000
1.000000 1.000000 0.920000
